!!!COM: Bach, Johann Sebastian
!!!OPR: Six Concerts Avec plusieurs ... le prince regnant d'Anhalt-Coethen
!!!OTL: Brandenburgische Konzerte B
!!!XEN: Brandenburg Concerto No. 6 in B-flat major.
!!!OMV: Movement 1.
!!!SCT: BWV 1051
!!!YEC: Copyright 1994, Center for Computer Assisted Research in the Humanities
!!!YEM: Rights to all derivative electronic formats reserved.
!!!YEM: Refer to licensing agreement for further details.
!! For the following instrumentation: Viola da braccio I & II,
!!    Viola da gamba I & II, Violoncello, Violone, Cembalo.
!! [Allegro]
**kern	**kern	**kern	**kern	**kern	**kern	**kern
*ICklav	*ICstr	*ICstr	*ICstr	*ICstr	*ICstr	*ICstr
*Icemba	*Icbass	*Icello	*Iviolt	*Iviolt	*Iviola	*Iviola
*IGcont	*IGcont	*	*	*	*	*
!cemba	!v'lone	!'cello	!vla'g2	!vla'g1	!vla'b2	!vla'b1
*k[b-e-]	*k[b-e-]	*k[b-e-]	*k[b-e-]	*k[b-e-]	*k[b-e-]	*k[b-e-]
*B-:	*B-:	*B-:	*B-:	*B-:	*B-:	*B-:
*M2/2	*M2/2	*M2/2	*M2/2	*M2/2	*M2/2	*M2/2
*MM58	*MM58	*MM58	*MM58	*MM58	*MM58	*MM58
*clefF4	*clefF4	*clefF4	*clefC4	*clefC4	*clefC3	*clefC3
=1	=1	=1	=1	=1	=1	=1
8BB-/L	8BBB-/L	8BB-/L	8F/L	8d\L	8r	16b-\LL
.	.	.	.	.	.	16a\JJ
8BB-/	8BBB-/	8BB-/	8F/	8d\	16b-\LL	[8b-\J
.	.	.	.	.	16a\JJ	.
8BB-/	8BBB-/	8BB-/	8F/	8d\	8.b-\L	16b-\LL]
.	.	.	.	.	.	16f\
8BB-/J	8BBB-/J	8BB-/J	8F/J	8d\J	.	16d\
.	.	.	.	.	16f\Jk	16B-\JJ
8BB-/L	8BBB-/L	8BB-/L	8F/L	8d\L	16d\LL	16f\LL
.	.	.	.	.	16B-\	16e-\JJ
8BB-/	8BBB-/	8BB-/	8F/	8d\	16f\	[8f\J
.	.	.	.	.	16e-\JJ	.
8BB-/	8BBB-/	8BB-/	8F/	8d\	8.f\L	16f\LL]
.	.	.	.	.	.	16d\
8BB-/J	8BBB-/J	8BB-/J	8F/J	8d\J	.	16B-\
.	.	.	.	.	16d\Jk	16F\JJ
=2	=2	=2	=2	=2	=2	=2
8BB-/L	8BBB-/L	8BB-/L	8F/L	8d\L	16B-/LL	16B-/LL
.	.	.	.	.	16F/	16A/JJ
8BB-/	8BBB-/	8BB-/	8F/	8d\	16B-/	[8B-/J
.	.	.	.	.	16A/JJ	.
8BB-/	8BBB-/	8BB-/	8F/	8d\	8.B-/L	16B-/LL]
.	.	.	.	.	.	16F/JJ
8BB-/J	8BBB-/J	8BB-/J	8F/J	8d\J	.	[8d/J
.	.	.	.	.	16F/Jk	.
8BB-/L	8BBB-/L	8BB-/L	8F/L	8d\L	8.d\L	16d\LL]
.	.	.	.	.	.	16B-\JJ
8BB-/	8BBB-/	8BB-/	8F/	8d\	.	[8f\J
.	.	.	.	.	16B-\Jk	.
8BB-/	8BBB-/	8BB-/	8F/	8d\	8.f\L	16f\LL]
.	.	.	.	.	.	16d\JJ
8BB-/J	8BBB-/J	8BB-/J	8F/J	8d\J	.	[8b-\J
.	.	.	.	.	16d\Jk	.
=3	=3	=3	=3	=3	=3	=3
8BB-/L	8BBB-/L	8BB-/L	8F/L	8d\L	8.b-\L	16b-\LL]
.	.	.	.	.	.	16f\
8BB-/	8BBB-/	8BB-/	8F/	8d\	.	16dd\
.	.	.	.	.	16f\Jk	16a\JJ
8BB-/	8BBB-/	8BB-/	8F/	8d\	16dd\LL	16b-\LL
.	.	.	.	.	16a\	16f\
8BB-/J	8BBB-/J	8BB-/J	8F/J	8d\J	16b-\	16d\
.	.	.	.	.	16f\JJ	16A\JJ
8BB-/L	8BBB-/L	8BB-/L	8F/L	8d\L	16d/LL	16B-/LL
.	.	.	.	.	16A/	16F/
8BB-/	8BBB-/	8BB-/	8F/	8d\	16B-/	16D/
.	.	.	.	.	16F/JJ	16F/JJ
8BB-/	8BBB-/	8BB-/	8F/	8d\	16D/LL	(16B-/LL
.	.	.	.	.	16F/	16A/)
8BB-/J	8BBB-/J	8BB-/J	8F/J	8d\J	(16B-/	(16d/
.	.	.	.	.	16A/JJ)	16c/JJ)
=4	=4	=4	=4	=4	=4	=4
8BB-/L	8BBB-/L	8BB-/L	8F/L	8d\L	(16d\LL	(16f\LL
.	.	.	.	.	16c\)	16e-\)
8BB-/	8BBB-/	8BB-/	8F/	8d\	(16f\	(16d\
.	.	.	.	.	16e-\JJ)	16c\JJ)
8BB-/	8BBB-/	8BB-/	8F/	8d\	(16d\LL	(16B-\LL
.	.	.	.	.	16c\	16f\)
8BB-/J	8BBB-/J	8BB-/J	8F/J	8d\J	16B-\)	(16b-\
.	.	.	.	.	16f\JJ	16a\JJ)
8BB-/L	8BBB-/L	8BB-/L	8F/L	8d\L	(16b-\LL	(16dd\LL
.	.	.	.	.	16a\)	16cc\)
8BB-/	8BBB-/	8BB-/	8F/	8d\	(16dd\	(16ff\
.	.	.	.	.	16cc\JJ)	16ee-\JJ)
8BB-/	8BBB-/	8BB-/	8F/	8d\	(16ff\LL	(16dd\LL
.	.	.	.	.	16ee-\)	16cc\)
8BB-/J	8BBB-/J	8BB-/J	8F/J	8d\J	(16dd\	(16b-\
.	.	.	.	.	16cc\JJ)	16a-\JJ)
=5	=5	=5	=5	=5	=5	=5
8E-\L	8EE-\L	8E-\L	8G/L	8e-\L	(16b-\LL	(16g\LL
.	.	.	.	.	16a-\	16b-\)
8E-\	8EE-\	8E-\	8G/	8e-\	16g\)	(16ee-\
.	.	.	.	.	16b-\JJ	16dd\JJ)
8E-\	8EE-\	8E-\	8G/	8e-\	(16ee-\LL	(16cc\LL
.	.	.	.	.	16dd\)	16b-\)
8E-\J	8EE-\J	8E-\J	8G/J	8e-\J	(16cc\	(16a\
.	.	.	.	.	16b-\JJ)	16g\JJ)
8E-\L	8EE-\L	8E-\L	8A\L	8c\L	(16a\LL	16f\LL
.	.	.	.	.	16g\)	16e\JJ
8E-\	8EE-\	8E-\	8A\	8c\	(16f\	[8f\J
.	.	.	.	.	16e\JJ)	.
8E-\	8EE-\	8E-\	8A\	8c\	8.f\L	16f\LL]
.	.	.	.	.	.	16c\
8E-\J	8EE-\J	8E-\J	8A\J	8c\J	.	16A\
.	.	.	.	.	16c\Jk	16F\JJ
=6	=6	=6	=6	=6	=6	=6
8E-\L	8EE-\L	8E-\L	8A\L	8c\L	16A/LL	16c/LL
.	.	.	.	.	16F/	16B-/JJ
8E-\	8EE-\	8E-\	8A\	8c\	16c/	[8c/J
.	.	.	.	.	16B-/JJ	.
8E-\	8EE-\	8E-\	8A\	8c\	8.c/L	16c/LL]
.	.	.	.	.	.	16A/
8E-\J	8EE-\J	8E-\J	8A\J	8c\J	.	16F/
.	.	.	.	.	16A/Jk	16C/JJ
8E-\L	8EE-\L	8E-\L	8A\L	8c\L	16F/LL	16F/LL
.	.	.	.	.	16C/	16E/JJ
8E-\	8EE-\	8E-\	8A\	8c\	16F/	[8F/J
.	.	.	.	.	16E/JJ	.
8E-\	8EE-\	8E-\	8A\	8c\	8.F/L	16F/LL]
.	.	.	.	.	.	16C/JJ
8E-\J	8EE-\J	8E-\J	8A\J	8c\J	.	[8A/J
.	.	.	.	.	16C/Jk	.
=7	=7	=7	=7	=7	=7	=7
8E-\L	8EE-\L	8E-\L	8A\L	8c\L	8.A/L	16A/LL]
.	.	.	.	.	.	16F/JJ
8E-\	8EE-\	8E-\	8A\	8c\	.	[8c/J
.	.	.	.	.	16F/Jk	.
8E-\	8EE-\	8E-\	8A\	8c\	8.c/L	16c/LL]
.	.	.	.	.	.	16A/JJ
8E-\J	8EE-\J	8E-\J	8A\J	8c\J	.	[8f/J
.	.	.	.	.	16A/Jk	.
8E-\L	8EE-\L	8E-\L	8A\L	8c\L	8.f\L	16f\LL]
.	.	.	.	.	.	16c\
8E-\	8EE-\	8E-\	8A\	8c\	.	16a\
.	.	.	.	.	16c\Jk	16f\JJ
8E-\	8EE-\	8E-\	8A\	8c\	16a\LL	16cc\LL
.	.	.	.	.	16f\	16a\
8E-\J	8EE-\J	8E-\J	8A\J	8c\J	16cc\	16f\
.	.	.	.	.	16a\JJ	16c\JJ
=8	=8	=8	=8	=8	=8	=8
8E-\L	8EE-\L	8E-\L	8A\L	8c\L	16f\LL	16a\LL
.	.	.	.	.	16c\	16f\
8E-\	8EE-\	8E-\	8A\	8c\	16a\	16c\
.	.	.	.	.	16f\JJ	16A\JJ
8E-\	8EE-\	8E-\	8A\	8c\	16c\LL	16f/LL
.	.	.	.	.	16A\JJ	16c/
8E-\J	8EE-\J	8E-\J	8A\J	8c\J	[8f\J	16A/
.	.	.	.	.	.	16F/JJ
8D\L	8DD\L	8D\L	8B-\L	8d\L	16f\LL]	16B-/LL
.	.	.	.	.	16c\	16A/JJ
8D\	8DD\	8D\	8B-\	8d\	16d\	[8B-/J
.	.	.	.	.	16A\JJ	.
8D\	8DD\	8D\	8B-\	8d\	8.B-/L	16B-/LL]
.	.	.	.	.	.	16F/JJ
8D\J	8DD\J	8D\J	8B-\J	8d\J	.	[8d/J
.	.	.	.	.	16F/Jk	.
=9	=9	=9	=9	=9	=9	=9
8D\L	8DD\L	8D\L	8B-\L	8f\L	8.d\L	16d\LL]
.	.	.	.	.	.	16B-\JJ
8D\	8DD\	8D\	8B-\	8f\	.	[8f\J
.	.	.	.	.	16B-\Jk	.
8D\	8DD\	8D\	8B-\	8f\	8.f\L	16f\LL]
.	.	.	.	.	.	16d\JJ
8D\J	8DD\J	8D\J	8B-\J	8f\J	.	[8b-\J
.	.	.	.	.	16d\Jk	.
8G\L	8GG\L	8G\L	8B-\L	8f\L	8.b-\L	16b-\LL]
.	.	.	.	.	.	16a-\
8G\	8GG\	8G\	8B-\	8d\	.	16g\
.	.	.	.	.	16a-\Jk	16f\JJ
8G\	8GG\	8G\	8B-\	8e-\	16g\LL	16e-\LL
.	.	.	.	.	16f\	16dd\
8G\J	8GG\J	8G\J	8B-\J	8e-\J	16e-\	16cc\
.	.	.	.	.	16d\JJ	16b-\JJ
=10	=10	=10	=10	=10	=10	=10
8F\L	8FF\L	8F\L	8c\L	8f\L	16e-\LL	16a\LL
.	.	.	.	.	16f\	16cc\JJ
8F\	8FF\	8F\	8c\	8f\	16a\	[8ee-\J
.	.	.	.	.	16cc\JJ	.
8F\	8FF\	8F\	8c\	8f\	8.ee-\L	16ee-\LL]
.	.	.	.	.	.	16a\
8F\J	8FF\J	8F\J	8c\J	8f\J	.	16cc\
.	.	.	.	.	16a\Jk	16f\JJ
8F\L	8FF\L	8F\L	8c\L	8f\L	16cc\LL	16a\LL
.	.	.	.	.	16f\	16c\JJ
8F\	8FF\	8F\	8c\	8f\	16a\	[8e-\J
.	.	.	.	.	16c\JJ	.
8F\	8FF\	8F\	8c\	8f\	8.e-\L	16e-/LL]
.	.	.	.	.	.	16A/
8F\J	8FF\J	8F\J	8c\J	8f\J	.	16c/
.	.	.	.	.	16A\Jk	16F/JJ
=11	=11	=11	=11	=11	=11	=11
8F\L	8FF\L	8F\L	8c\L	8f\L	16c/LL	16A/LL
.	.	.	.	.	16F/	16C/JJ
8F\	8FF\	8F\	8c\	8f\	16A/	[8E-/J
.	.	.	.	.	16C/JJ	.
8F\	8FF\	8F\	8c\	8f\	8.E-/L	16E-/LL]
.	.	.	.	.	.	16F/
8F\J	8FF\J	8F\J	8c\J	8f\J	.	16A/
.	.	.	.	.	16F/Jk	16F/JJ
8F\L	8FF\L	8F\L	8c\L	8f\L	16A/LL	16c\LL
.	.	.	.	.	16F/	16A\
8F\	8FF\	8F\	8c\	8f\	16c/	16f\
.	.	.	.	.	16A/JJ	16c\JJ
8F\	8FF\	8F\	8c\	8c\	16f\LL	16a\LL
.	.	.	.	.	16c\	16f\
8F\J	8FF\J	8F\J	8c\J	8c\J	16a\	16cc\
.	.	.	.	.	16f\JJ	16e-\JJ
=12	=12	=12	=12	=12	=12	=12
8F\L	8FF\L	8F\L	8B-\L	8d\L	16b-\LL	16d\LL
.	.	.	.	.	16f\	16f\JJ
8F\	8FF\	8F\	8B-\	8d\	16d\	[8b-\J
.	.	.	.	.	16f\JJ	.
8F\	8FF\	8F\	8B-\	8d\	8.b-\L	16b-\LL]
.	.	.	.	.	.	16dd\
8F\J	8FF\J	8F\J	8B-\J	8d\J	.	16ff\
.	.	.	.	.	16dd\Jk	16b-\JJ
8F\L	8FF\L	8F\L	8B-\L	8d\L	16ff\LL	16dd\LL
.	.	.	.	.	16b-\	16f\JJ
8F\	8FF\	8F\	8B-\	8d\	16dd\	[8b-\J
.	.	.	.	.	16f\JJ	.
8F\	8FF\	8F\	8B-\	8d\	8.b-\L	16b-\LL]
.	.	.	.	.	.	16d\
8F\J	8FF\J	8F\J	8B-\J	8d\J	.	16f\
.	.	.	.	.	16d\Jk	16B-\JJ
=13	=13	=13	=13	=13	=13	=13
8F\L	8FF\L	8F\L	8B-\L	8d\L	16f/LL	16d/LL
.	.	.	.	.	16B-/	16F/JJ
8F\	8FF\	8F\	8B-\	8d\	16d/	[8B-/J
.	.	.	.	.	16F/JJ	.
8F\	8FF\	8F\	8B-\	8d\	8.B-/L	16B-/LL]
.	.	.	.	.	.	16F/
8F\J	8FF\J	8F\J	8B-\J	8d\J	.	16D/
.	.	.	.	.	16F/Jk	16F/JJ
8F\L	8FF\L	8F\L	8B-\L	8d\L	16D/LL	16B-/LL
.	.	.	.	.	16F/	16F/
8F\	8FF\	8F\	8B-\	8d\	16B-/	16d/
.	.	.	.	.	16F/JJ	16B-/JJ
8F\	8FF\	8F\	8B-\	8d\	16d\LL	16f\LL
.	.	.	.	.	16B-\	16d\
8F\J	8FF\J	8F\J	8B-\J	8d\J	16f\	16b-\
.	.	.	.	.	16d\JJ	16g\JJ
=14	=14	=14	=14	=14	=14	=14
8F\L	8FF\L	8F\L	8G/L	8e\L	16b-\LL	16e\LL
.	.	.	.	.	16g\	16g\JJ
8F\	8FF\	8F\	8G/	8e\	16e\	[8b-\J
.	.	.	.	.	16g\JJ	.
8F\	8FF\	8F\	8G/	8e\	8.b-\L	16b-\LL]
.	.	.	.	.	.	16e\
8F\J	8FF\J	8F\J	8G/J	8e\J	.	16g\
.	.	.	.	.	16e\Jk	16c\JJ
8F\L	8FF\L	8F\L	8G/L	8e\L	16g\LL	16e/LL
.	.	.	.	.	16c\	16G/JJ
8F\	8FF\	8F\	8G/	8e\	16e\	[8B-/J
.	.	.	.	.	16G\JJ	.
8F\	8FF\	8F\	8G/	8e\	8.B-/L	16B-/LL]
.	.	.	.	.	.	16E/
8F\J	8FF\J	8F\J	8G/J	8e\J	.	16G/
.	.	.	.	.	16E/Jk	16C/JJ
=15	=15	=15	=15	=15	=15	=15
8F\L	8FF\L	8F\L	8G/L	8e\L	16G/LL	16E/LL
.	.	.	.	.	16C/	16G/JJ
8F\	8FF\	8F\	8G/	8e\	16E/	[8B-/J
.	.	.	.	.	16G/JJ	.
8F\	8FF\	8F\	8G/	8e\	8.B-/L	16B-/LL]
.	.	.	.	.	.	16G/JJ
8F\J	8FF\J	8F\J	8G/J	8e\J	.	[8e/J
.	.	.	.	.	16G/Jk	.
8F\L	8FF\L	8F\L	8G/L	8e\L	8.e\L	16e\LL]
.	.	.	.	.	.	16c\JJ
8F\	8FF\	8F\	8G/	8e\	.	[8g\J
.	.	.	.	.	16c\Jk	.
8F\	8FF\	8F\	8G/	8e\	8.g\L	16g\LL]
.	.	.	.	.	.	16e\JJ
8F\J	8FF\J	8F\J	8G/J	8g\J	.	[8b-\J
.	.	.	.	.	16e\Jk	.
=16	=16	=16	=16	=16	=16	=16
8F\L	8FF\L	8F\L	8F/L	8c\L	8.f\L	16b-\LL]
.	.	.	.	.	.	16g\
8F\	8FF\	8F\	8F/	8c\	.	16a\
.	.	.	.	.	16cc\Jk	16f\JJ
8E-\	8EE-\	8E-\	8A/	8c\	16a\LL	16cc\LL
.	.	.	.	.	16f\	16a\
8E-\J	8EE-\J	8E-\J	8A/J	8c\J	16c\	16ee-\
.	.	.	.	.	16A\JJ	16cc\JJ
8.D\L	8.DD\L	8.D\L	8.B-\L	8.d\L	8.F\L	16ff\LL
.	.	.	.	.	.	16a\
.	.	.	.	.	.	16b-\
16E-\Jk	16EE-\Jk	16E-\Jk	16B-\Jk	16c\Jk	16g\Jk	16e-\JJ
8F/L	8FF/L	8F\L	8B-\L	8d\L	16f\LL	16d\LL
.	.	.	.	.	16d\	16b-\
8FF/J	8FFF/J	16FF\LL	8F\J	8f\J	16e-\	16c\
.	.	16F\JJ	.	.	16c\JJ	16a\JJ
=17	=17	=17	=17	=17	=17	=17
8BB-/L	8BBB-/L	8B-\L	4F/	4f\	4d\	4b-\
8BB-/	8BBB-/	(16B-\LL	.	.	.	.
.	.	16A\JJ)	.	.	.	.
8BB-/	8BBB-/	8B-\L	4r	4r	4r	8r
8BB-/J	8BBB-/J	(16B-\LL	.	.	.	8f\
.	.	16A\JJ)	.	.	.	.
8BB-/L	8BBB-/L	(16B-\LL	2r	4r	2r	8b-\L
.	.	16F\	.	.	.	.
8BB-/	8BBB-/	16D\	.	.	.	(16b-\LL
.	.	16E-\JJ)	.	.	.	16a\JJ)
8BB-/	8BBB-/	(16F\LL	.	8r	.	8b-\L
.	.	16D\	.	.	.	.
8BB-/J	8BBB-/J	16BB-\	.	8F/	.	(16b-\LL
.	.	16C\JJ)	.	.	.	16a\JJ)
=18	=18	=18	=18	=18	=18	=18
8BB-/L	8BBB-/L	8D/L	2r	8B-\L	4r	(16b-\LL
.	.	.	.	.	.	16f\
8BB-/	8BBB-/	16BB-/LL	.	(16B-\LL	.	16d\
.	.	16C/JJ	.	16A\JJ)	.	16e-\JJ)
8BB-/	8BBB-/	8D\L	.	8B-\L	8r	(16f\LL
.	.	.	.	.	.	16d\
8BB-/J	8BBB-/J	16D\LL	.	(16B-\LL	8f\	16B-\
.	.	16E-\JJ	.	16A\JJ)	.	16c\JJ)
8BB-/L	8BBB-/L	8F\L	4r	8B-/L	8b-\L	(16d\LL
.	.	.	.	.	.	16f\
8BB-/	8BBB-/	(16F\LL	.	8F/	(16b-\LL	16d\)
.	.	16E-\JJ)	.	.	16a\JJ)	16c\JJ
8BB-/	8BBB-/	8F\L	8r	8D/	8b-\L	(16d\LL
.	.	.	.	.	.	16f\
8BB-/J	8BBB-/J	(16F\LL	8F/	8F/J	(16b-\LL	16d\)
.	.	16E-\JJ)	.	.	16a\JJ)	16c\JJ
=19	=19	=19	=19	=19	=19	=19
8BB-/L	8BBB-/L	8F\L	8B-\L	8F\L	(16b-\LL	8d\L
.	.	.	.	.	16f\	.
8BB-/	8BBB-/	16F\LL	(16B-\LL	16d\LL	16d\	16B-\LL
.	.	16E-\JJ	16A\JJ)	16c\JJ	16e-\JJ)	16c\JJ
8BB-/	8BBB-/	8D\L	8B-\L	8B-\L	(16f\LL	8d\L
.	.	.	.	.	16d\	.
8BB-/J	8BBB-/J	16D\LL	(16B-\LL	16f\LL	16B-\	16d\LL
.	.	16C\JJ	16A\JJ)	16e-\JJ	16c\JJ)	16e-\JJ
8BB-\L	8BBB-\L	8BB-\L	8B-/L	8d\L	(16d\LL	(16f\LL
.	.	.	.	.	16f\	16dd\
8B-\	8BB-\	8B-\	8F/	16f\LL	16d\)	16b-\)
.	.	.	.	16e-\JJ	16c\JJ	16a\JJ
8B-\	8BB-\	8B-\	8D/	8f\L	(16d\LL	(16b-\LL
.	.	.	.	.	16f\	16dd\
8B-\J	8BB-\J	8B-\J	8F/J	16f\LL	16d\)	16b-\)
.	.	.	.	16e-\JJ	16c\JJ	16a\JJ
=20	=20	=20	=20	=20	=20	=20
8B-\L	8BB-\L	8B-\L	8F\L	8d\L	8d\L	16b-\LL
.	.	.	.	.	.	16f\
16A\LL	16AA\LL	16A\LL	16d\LL	16f\LL	16B-\LL	16g\
16G\JJ	16GG\JJ	16G\JJ	16e-\JJ	16e-\JJ	16c\JJ	16a\JJ
16F\LL	16FF\LL	16F\LL	8f\L	16d\LL	8d\L	16b-\LL
16E-\	16EE-\	16E-\	.	16c\	.	16a\
16D\	16DD\	16D\	16f\LL	16B-\	16d\LL	16b-\
16C\JJ	16CC\JJ	16C\JJ	16e-\JJ	16A\JJ	16e-\JJ	16cc\JJ
8BB-/L	8BBB-/L	8BB-/L	8d\L	8B-\L	(16f\LL	(16dd\LL
.	.	.	.	.	16dd\	16ff\
8BB-/	8BBB-/	8BB-/	8f\	8B-\	16b-\)	16dd\)
.	.	.	.	.	16a\JJ	16cc\JJ
8BB-/	8BBB-/	8BB-/	8f\	8B-\	(16b-\LL	(16dd\LL
.	.	.	.	.	16dd\	16ff\
8BB-/J	8BBB-/J	8BB-/J	8f\J	8B-\J	16b-\)	16dd\)
.	.	.	.	.	16a\JJ	16cc\JJ
=21	=21	=21	=21	=21	=21	=21
4BB-/	4BBB-/	4BB-/	16f\LL	16B-\LL	8b-\L	8dd\L
.	.	.	16e-\	16c\	.	.
.	.	.	16d\	16d\	8f\J	8b-\J
.	.	.	16c\JJ	16c\JJ	.	.
4r	4r	4r	16B-\LL	16B-\LL	4r	8r
.	.	.	16A-\	16A-\	.	.
.	.	.	16G\	16G\	.	8ff\
.	.	.	16F\JJ	16F\JJ	.	.
2r	2r	2r	4E-/	8E-/	4r	(16gg\LL
.	.	.	.	.	.	16ff\
.	.	.	.	8B-\	.	16ee-\)
.	.	.	.	.	.	16ff\JJ
.	.	.	8r	(16e-\LL	8r	16gg\LL
.	.	.	.	16d\JJ)	.	16ff\
.	.	.	8c\	8e-\J	8g\	16ee-\
.	.	.	.	.	.	16dd\JJ
=22	=22	=22	=22	=22	=22	=22
1r	1r	1r	(16f\LL	8r	(16a\LL	(16cc\LL
.	.	.	16e\JJ)	.	16g\	16b-\
.	.	.	8f\J	8c\	16f\)	16a\)
.	.	.	.	.	16g\JJ	16b-\JJ
.	.	.	8r	(16f\LL	16a\LL	16cc\LL
.	.	.	.	16e-\JJ)	16g\	16ee-\
.	.	.	8B-\	8f\J	16f\	16dd\
.	.	.	.	.	16e-\JJ	16ee-\JJ
.	.	.	(16a-\LL	8r	(16d\LL	(16ff\LL
.	.	.	16g\JJ)	.	16c\	16ee-\
.	.	.	8a-\J	8B-\	16B-\)	16dd\)
.	.	.	.	.	16c\JJ	16ee-\JJ
.	.	.	8r	(16a-\LL	16d\LL	16ff\LL
.	.	.	.	16g\JJ)	16e-\	16ee-\
.	.	.	8B-\	8a-\J	16f\	16dd\
.	.	.	.	.	16d\JJ	16cc\JJ
=23	=23	=23	=23	=23	=23	=23
1r	1r	1r	(16e-\LL	8r	(16g\LL	(16b-\LL
.	.	.	16d\JJ)	.	16f\	16a-\
.	.	.	8e-\J	8B-\	16e-\)	16g\)
.	.	.	.	.	16f\JJ	16a-\JJ
.	.	.	8r	(16e-\LL	16g\LL	16b-\LL
.	.	.	.	16d\JJ)	16f\	16dd\
.	.	.	8G/	8e-\J	16e-\	16cc\
.	.	.	.	.	16d\JJ	16dd\JJ
.	.	.	(16c\LL	8r	16c\LL	[4ee-\
.	.	.	16B-\JJ)	.	16e-\	.
.	.	.	8c\J	8c\	16d\	.
.	.	.	.	.	16e-\JJ	.
.	.	.	8r	(16a\LL	[4f\	16ee-\LL]
.	.	.	.	16g\JJ)	.	16cc\
.	.	.	8F/	8a\J	.	16b-\
.	.	.	.	.	.	16cc\JJ
=24	=24	=24	=24	=24	=24	=24
1r	1r	1r	(16B-\LL	8r	16f\LL]	[4dd\
.	.	.	16A\JJ)	.	16a\	.
.	.	.	8B-\J	8d\	16g\	.
.	.	.	.	.	16a\JJ	.
.	.	.	8r	(16g\LL	[4b-\	16dd\LL]
.	.	.	.	16f\JJ)	.	16b-\
.	.	.	8G/	[8g\J	.	16a\
.	.	.	.	.	.	16b-\JJ
.	.	.	8A/L	16g\LL]	16b-\LL]	8.cc\L
.	.	.	.	16e\	16g\	.
.	.	.	8F/	16f\	16a\	.
.	.	.	.	16d\JJ	16f\JJ	16dd\Jk
.	.	.	8c/	8c\L	8.ent\L	8at\L
.	.	.	8C/J	8B-\J	.	(16g\LL
.	.	.	.	.	16f\Jk	16f\JJ)
=25	=25	=25	=25	=25	=25	=25
8FF/L	8FFF/L	8FF/L	8F/L	8A\L	8f\L	16f\LL
.	.	.	.	.	.	16e\JJ
8FF/	8FFF/	8FF/	8A/	8c\	16f\LL	[8f\J
.	.	.	.	.	16e\JJ	.
8FF/	8FFF/	8FF/	8A/	8c\	8.f\L	16f/LL]
.	.	.	.	.	.	16c/
8FF/J	8FFF/J	8FF/J	8A/J	8c\J	.	16A/
.	.	.	.	.	16c\Jk	16F/JJ
8FF/L	8FFF/L	8FF/L	8A/L	8c\L	16A/LL	16c/LL
.	.	.	.	.	16F/	16B-/JJ
8FF/	8FFF/	8FF/	8A/	8c\	16c/	[8c/J
.	.	.	.	.	16B-/JJ	.
8FF/	8FFF/	8FF/	8A/	8c\	8.c/L	16c/LL]
.	.	.	.	.	.	16A/
8FF/J	8FFF/J	8FF/J	8A/J	8c\J	.	16F/
.	.	.	.	.	16A/Jk	16C/JJ
=26	=26	=26	=26	=26	=26	=26
8FF/L	8FFF/L	8FF/L	8A/L	8c\L	16F/LL	16F/LL
.	.	.	.	.	16C/	16E/JJ
8FF/	8FFF/	8FF/	8A/	8c\	16F/	[8F/J
.	.	.	.	.	16E/JJ	.
8FF/	8FFF/	8FF/	8A/	8c\	8.F/L	16F/LL]
.	.	.	.	.	.	16C/JJ
8FF/J	8FFF/J	8FF/J	8A/J	8c\J	.	[8A/J
.	.	.	.	.	16C/Jk	.
8FF/L	8FFF/L	8FF/L	8A/L	8c\L	8.A/L	16A/LL]
.	.	.	.	.	.	16F/JJ
8FF/	8FFF/	8FF/	8A/	8c\	.	[8c/J
.	.	.	.	.	16F/Jk	.
8FF/	8FFF/	8FF/	8A/	8c\	8.c/L	16c/LL]
.	.	.	.	.	.	16A/JJ
8FF/J	8FFF/J	8FF/J	8A/J	8c\J	.	[8e-/J
.	.	.	.	.	16A/Jk	.
=27	=27	=27	=27	=27	=27	=27
8BB-/L	8BBB-/L	8BB-/L	8F/L	8B-\L	8f\L	16e-\LL]
.	.	.	.	.	.	16c\
8BB-/	8BBB-/	8BB-/	8F/	8B-\	16b-\LL	16d\
.	.	.	.	.	16f\JJ	16B-\JJ
8BB-/	8BBB-/	8BB-/	8F/	8B-\	16d/LL	16f\LL
.	.	.	.	.	16B-/	16d\JJ
8BB-/J	8BBB-/J	8BB-/J	8F/J	8B-\J	16F/	[8a-\J
.	.	.	.	.	16D/JJ	.
8E-\L	8EE-\L	8E-\L	8E-/L	8B-\L	8B-\L	16a-\LL]
.	.	.	.	.	.	16f\
8E-\	8EE-\	8E-\	8E-/	8B-\	16ee-\LL	16g\
.	.	.	.	.	16b-\JJ	16e-\JJ
8E-\	8EE-\	8E-\	8G/	8B-\	16g\LL	16b-\LL
.	.	.	.	.	16e-\	16g\JJ
8E-\J	8EE-\J	8E-\J	8G/J	8B-\J	16B-\	[8dd-\J
.	.	.	.	.	16G\JJ	.
=28	=28	=28	=28	=28	=28	=28
8F/L	8FF/L	8F/L	8A/L	8f\L	16f\LL	16dd-\LL]
.	.	.	.	.	16e-\	16cc\
8BB-/	8BBB-/	8BB-/	8F/	8d\	16f\	16dd\
.	.	.	.	.	16d\JJ	16b-\JJ
8F/	8FF/	8F/	8F/	8c\	16e-\LL	16f\LL
.	.	.	.	.	16d\	16b-\
8FF/J	8FFF/J	8FF/J	8F/J	8c\J	16e-\	16cc\
.	.	.	.	.	16c\JJ	16a\JJ
4BB-/	4BBB-/	8BB-/	4F/	4B-\	8d\L	8b-\L
.	.	16BB-/LL	.	.	8B-\J	(16b-\LL
.	.	16C/JJ	.	.	.	16a\JJ)
4r	4r	8D\L	4r	4r	4r	8b-\L
.	.	8F\J	.	.	.	(16b-\LL
.	.	.	.	.	.	16a\JJ)
=29	=29	=29	=29	=29	=29	=29
1r	1r	8B-\L	1r	1r	4r	(16b-\LL
.	.	.	.	.	.	16f\
.	.	(16B-\LL	.	.	.	16d\
.	.	16A\JJ)	.	.	.	16e-\JJ)
.	.	8B-\L	.	.	8r	(16f\LL
.	.	.	.	.	.	16d\
.	.	(16B-\LL	.	.	8f\	16B-\
.	.	16A\JJ)	.	.	.	16c\JJ)
.	.	8B-\L	.	.	8b-\L	(16d\LL
.	.	.	.	.	.	16f\
.	.	8F\	.	.	(16b-\LL	16d\)
.	.	.	.	.	16a\JJ)	16c\JJ
.	.	8D\	.	.	8b-\L	(16d\LL
.	.	.	.	.	.	16f\
.	.	8F\J	.	.	(16b-\LL	16d\)
.	.	.	.	.	16a\JJ)	16c\JJ
=30	=30	=30	=30	=30	=30	=30
1r	1r	8BB-/L	1r	1r	(16b-\LL	8d\L
.	.	.	.	.	16f\	.
.	.	(16BB-/LL	.	.	16d\	16B-\LL
.	.	16AA/JJ)	.	.	16e-\JJ)	16c\JJ
.	.	8BB-/L	.	.	(16f\LL	8d\L
.	.	.	.	.	16d\	.
.	.	(16BB-/LL	.	.	16B-\	16d\LL
.	.	16AA/JJ)	.	.	16c\JJ)	16e-\JJ
.	.	4BB-/	.	.	(16d\LL	(16f\LL
.	.	.	.	.	16f\	16dd\
.	.	.	.	.	16d\)	16b-\)
.	.	.	.	.	16c\JJ	16a\JJ
.	.	8r	.	.	(16d\LL	(16b-\LL
.	.	.	.	.	16f\	16dd\
.	.	8BB-/	.	.	16d\)	16b-\)
.	.	.	.	.	16c\JJ	16a\JJ
=31	=31	=31	=31	=31	=31	=31
1r	1r	(16E-\LL	1r	1r	4B-/	4g\
.	.	16G\	.	.	.	.
.	.	16E-\)	.	.	.	.
.	.	16D\JJ	.	.	.	.
.	.	(16E-\LL	.	.	8r	8r
.	.	16G\	.	.	.	.
.	.	16E-\)	.	.	8B-/	8g\
.	.	16D\JJ	.	.	.	.
.	.	4C/	.	.	(16e-\LL	(16cc\LL
.	.	.	.	.	16g\	16ee-\
.	.	.	.	.	16e-\)	16cc\)
.	.	.	.	.	16d\JJ	16b-\JJ
.	.	8r	.	.	(16e-\LL	(16cc\LL
.	.	.	.	.	16g\	16ee-\
.	.	8c\	.	.	16e-\)	16cc\)
.	.	.	.	.	16d\JJ	16b-\JJ
=32	=32	=32	=32	=32	=32	=32
8F\L	8FF\L	8f\L	1r	2r	4c\	4a\
8F\	8FF\	(16f\LL	.	.	.	.
.	.	16e\JJ)	.	.	.	.
8F\	8FF\	8f\L	.	.	4r	8r
8F\J	8FF\J	(16f\LL	.	.	.	8cc\
.	.	16e\JJ)	.	.	.	.
8F\L	8FF\L	(16f\LL	.	4r	2r	8ff\L
.	.	16c\	.	.	.	.
8F\	8FF\	16A\	.	.	.	(16ff\LL
.	.	16B-\JJ)	.	.	.	16ee\JJ)
8F\	8FF\	(16c\LL	.	8r	.	8ff\L
.	.	16A\	.	.	.	.
8F\J	8FF\J	16F\	.	8c\	.	(16ff\LL
.	.	16G\JJ)	.	.	.	16ee\JJ)
=33	=33	=33	=33	=33	=33	=33
8F\L	8FF\L	8A\L	2r	8f\L	4r	(16ff\LL
.	.	.	.	.	.	16cc\
8F\	8FF\	16F\LL	.	(16f\LL	.	16a\
.	.	16G\JJ	.	16e\JJ)	.	16b-\JJ)
8F\	8FF\	8A\L	.	8f\L	8r	(16cc\LL
.	.	.	.	.	.	16a\
8F\J	8FF\J	16A\LL	.	(16f\LL	8cc\	16f\
.	.	16B-\JJ	.	16e\JJ)	.	16g\JJ)
8F\L	8FF\L	8c\L	4r	8f\L	8ff\L	(16a\LL
.	.	.	.	.	.	16cc\
8F\	8FF\	(16c\LL	.	8c\	(16ff\LL	16a\)
.	.	16B-\JJ)	.	.	16ee\JJ)	16g\JJ
8F\	8FF\	8c\L	8r	8A\	8ff\L	(16a\LL
.	.	.	.	.	.	16cc\
8F\J	8FF\J	(16c\LL	8c\	8c\J	(16ff\LL	16a\)
.	.	16B-\JJ)	.	.	16ee\JJ)	16g\JJ
=34	=34	=34	=34	=34	=34	=34
8F\L	8FF\L	8c\L	8f\L	8A\L	(16ff\LL	8a/L
.	.	.	.	.	16cc\	.
8F\	8FF\	(16c\LL	(16f\LL	(16A\LL	16a\	16F/LL
.	.	16B-\JJ)	16e\JJ)	16G\JJ)	16b-\JJ)	16G/JJ
8F\	8FF\	8A\L	8f\L	8F\L	(16cc\LL	8A/L
.	.	.	.	.	16a\	.
8F\J	8FF\J	(16A\LL	(16f\LL	16c\LL	16f\	16A/LL
.	.	16G\JJ)	16e\JJ)	16B-\JJ	16g\JJ)	16B-/JJ
8F\L	8FF\L	8F\L	8f\L	8A\L	(16a\LL	(16c\LL
.	.	.	.	.	16cc\	16a\
8F\	8FF\	8F\	8c\	16c\LL	16a\)	16f\)
.	.	.	.	16B-\JJ	16g\JJ	16e\JJ
8F\	8FF\	8F\	8A\	8c\L	(16a\LL	(16f\LL
.	.	.	.	.	16cc\	16a\
8F\J	8FF\J	8F\J	8c\J	16c\LL	16a\)	16f\)
.	.	.	.	16B-\JJ	16g\JJ	16e\JJ
=35	=35	=35	=35	=35	=35	=35
8F\L	8FF\L	8F\L	8c\L	8A\L	8a/L	16f\LL
.	.	.	.	.	.	16c\
16E\LL	16EE\LL	16E\LL	16A\LL	16c\LL	16F/LL	16d\
16D\JJ	16DD\JJ	16D\JJ	16B-\JJ	16B-\JJ	16G/JJ	16e\JJ
16C/LL	16CC/LL	16C/LL	8c\L	16A/LL	8A/L	16f\LL
16BB-/	16BBB-/	16BB-/	.	16G/	.	16e\
16AA/	16AAA/	16AA/	16c\LL	16F/	16A/LL	16f\
16GG/JJ	16GGG/JJ	16GG/JJ	16B-\JJ	16E/JJ	16B-/JJ	16g\JJ
8FF/L	8FFF/L	8FF/L	8A\L	8F/L	(16c\LL	(16a\LL
.	.	.	.	.	16a\	16cc\
8FF/	8FFF/	8FF/	8c\	8F/	16f\)	16a\)
.	.	.	.	.	16e\JJ	16g\JJ
8FF/	8FFF/	8FF/	8c\	8F/	(16f\LL	(16a\LL
.	.	.	.	.	16a\	16cc\
8FF/J	8FFF/J	8FF/J	8c\J	8F/J	16f\)	16a\)
.	.	.	.	.	16e\JJ	16g\JJ
=36	=36	=36	=36	=36	=36	=36
4FF/	4FFF/	4FF/	16c/LL	16F/LL	8f\L	8a\L
.	.	.	16B-/	16G/	.	.
.	.	.	16A/	16A/	8c\J	8f\J
.	.	.	16G/JJ	16G/JJ	.	.
4r	4r	4r	16F/LL	16F/LL	4r	8r
.	.	.	16E-/	16E-/	.	.
.	.	.	16D/	16D/	.	8cc\
.	.	.	16C/JJ	16C/JJ	.	.
2r	2r	2r	4BB-/	8BB-/	4r	(16dd\LL
.	.	.	.	.	.	16cc\
.	.	.	.	8F/	.	16b-\)
.	.	.	.	.	.	16cc\JJ
.	.	.	8r	(16B-\LL	8r	16dd\LL
.	.	.	.	16A\JJ)	.	16cc\
.	.	.	8G/	8B-\J	8d\	16b-\
.	.	.	.	.	.	16a\JJ
=37	=37	=37	=37	=37	=37	=37
1r	1r	1r	(16c\LL	8r	(16e\LL	(16g\LL
.	.	.	16B\JJ)	.	16d\	16f\
.	.	.	8c\J	8G/	16c\)	16e\)
.	.	.	.	.	16d\JJ	16f\JJ
.	.	.	8r	(16c\LL	16e\LL	16g\LL
.	.	.	.	16B-\JJ)	16d\	16b-\
.	.	.	8F/	8c\J	16c\	16a\
.	.	.	.	.	16B-\JJ	16b-\JJ
.	.	.	(16e-\LL	8r	(16A/LL	(16cc\LL
.	.	.	16d\JJ)	.	16G/	16b-\
.	.	.	8e-\J	8F/	16F/)	16a\)
.	.	.	.	.	16G/JJ	16b-\JJ
.	.	.	8r	(16e-\LL	16A/LL	16cc\LL
.	.	.	.	16d\JJ)	16B-/	16b-\
.	.	.	8F/	8e-\J	16c/	16a\
.	.	.	.	.	16A/JJ	16g\JJ
=38	=38	=38	=38	=38	=38	=38
1r	1r	1r	(16B-\LL	8r	(16d/LL	(16f\LL
.	.	.	16A\JJ)	.	16c/	16e\
.	.	.	8B-\J	8F/	16B-/)	16d\)
.	.	.	.	.	16c/JJ	16e\JJ
.	.	.	8r	(16B-\LL	16d/LL	16f\LL
.	.	.	.	16A\JJ)	16c/	16a\
.	.	.	8D/	8B-\J	16B-/	16g\
.	.	.	.	.	16A/JJ	16a\JJ
.	.	.	(16d\LL	8r	16G/LL	[4b-\
.	.	.	16c\JJ)	.	16B-/	.
.	.	.	8d\J	8G/	16A/	.
.	.	.	.	.	16B-/JJ	.
.	.	.	8r	(16e\LL	[4c\	16b-\LL]
.	.	.	.	16d\JJ)	.	16g\
.	.	.	8C/	8e\J	.	16f\
.	.	.	.	.	.	16g\JJ
=39	=39	=39	=39	=39	=39	=39
1r	1r	1r	(16F/LL	8r	16c\LL]	[4a\
.	.	.	16E/JJ)	.	16e\	.
.	.	.	8F/J	8c\	16d\	.
.	.	.	.	.	16e\JJ	.
.	.	.	8r	(16f\LL	[4f\	16a\LL]
.	.	.	.	16e\JJ)	.	16b-\
.	.	.	8D/	8f\J	.	16a\
.	.	.	.	.	.	16b-\JJ
.	.	.	(16A/LL	8r	16f\LL]	16cc\LL
.	.	.	16G/	.	16b-\	16e\
.	.	.	16A/)	8c\	16a\	16f\
.	.	.	16F/JJ	.	16b-\JJ	16g\JJ
.	.	.	8c/L	(16c\LL	8.gT\L	8.et\L
.	.	.	.	16B-\JJ)	.	.
.	.	.	8C/J	8c\J	.	.
.	.	.	.	.	16f\Jk	16f\Jk
=40	=40	=40	=40	=40	=40	=40
(8F\L	(8FF\L	(8F\L	8F/L	8A\L	8f\L	4f\
8F\	8FF\	8F\	(16A/LL	(16c\LL	(16f\LL	.
.	.	.	16G/JJ)	16B-\JJ)	16e\JJ)	.
8F\	8FF\	8F\	8A/L	8c\L	8f\L	8r
8F\J)	8FF\J)	8F\J)	(16A/LL	(16c\LL	16f\LL	8f\
.	.	.	16G/JJ)	16B-\JJ)	16e\JJ	.
(8C/L	(8CC/L	(8C/L	(8A/L	(8c\L	(8f\L	8ee-\L
8C/	8CC/	8C/	8A/	8c\	8f\	(16ee-\LL
.	.	.	.	.	.	16dd\JJ)
8C/	8CC/	8C/	8A/	8c\	8f\	8ee-\L
8C/J)	8CC/J)	8C/J)	8A/J)	8c\J)	8f\J)	(16ee-\LL
.	.	.	.	.	.	16dd\JJ)
=41	=41	=41	=41	=41	=41	=41
(8AA/L	(8AAA/L	(8AA/L	(8F/L	(8c\L	(8f\L	(16ee-\LL
.	.	.	.	.	.	16cc\
8AA/	8AAA/	8AA/	8F/	8c\	8f\	16a\
.	.	.	.	.	.	16b-\JJ)
8AA/	8AAA/	8AA/	8F/	8c\	8f\	(16cc\LL
.	.	.	.	.	.	16a\
8AA/J)	8AAA/J)	8AA/J)	8F/J)	8c\J)	8f\J)	16f\
.	.	.	.	.	.	16g\JJ)
(8FF/L	(8FFF/L	(8FF/L	(8F/L	(8c\L	(8f\L	(16a\LL
.	.	.	.	.	.	16f\
8FF/	8FFF/	8FF/	8F/	8c\	8f\	16c\
.	.	.	.	.	.	16d\JJ)
8FF/	8FFF/	8FF/	8A/	8c\	8f\	(16e-\LL
.	.	.	.	.	.	16c\
8FF/J)	8FFF/J)	8FF/J)	8A/J)	8c\J)	8f\J)	16A\
.	.	.	.	.	.	16c\JJ)
=42	=42	=42	=42	=42	=42	=42
(8BB-/L	(8BBB-/L	(8BB-/L	8F/L	8B-\L	8f\L	8d\L
8BB-/	8BBB-/	8BB-/	(16F/LL	(16B-\LL	(16d\LL	8B-\J
.	.	.	16E/JJ)	16A\JJ)	16c\JJ)	.
8BB-/	8BBB-/	8BB-/	8F/L	8B-\L	8d\L	8r
8BB-/J)	8BBB-/J)	8BB-/J)	(16F/LL	(16A\LL	(16d\LL	8d\
.	.	.	16G/JJ)	16G\JJ)	16c\JJ)	.
(8AA/L	(8AAA/L	(8AA/L	(8A/L	(8F#/L	(8d\L	8cc\L
8AA/	8AAA/	8AA/	8A/	8F#/	8d\	(16cc\LL
.	.	.	.	.	.	16b-\JJ)
8AA/	8AAA/	8AA/	8A/	8F#/	8d\	8cc\L
8AA/J)	8AAA/J)	8AA/J)	8A/J)	8F#/J)	8d\J)	(16cc\LL
.	.	.	.	.	.	16b-\JJ)
=43	=43	=43	=43	=43	=43	=43
(8FF#/L	(8FFF#/L	(8FF#/L	(8D/L	(8A\L	(8d\L	(16cc\LL
.	.	.	.	.	.	16a\
8FF#/	8FFF#/	8FF#/	8D/	8A\	8d\	16f#\
.	.	.	.	.	.	16g\JJ)
8FF#/	8FFF#/	8FF#/	8D/	8A\	8d\	(16a\LL
.	.	.	.	.	.	16f#\
8FF#/J)	8FFF#/J)	8FF#/J)	8D/J)	8A\J)	8d\J)	16d\
.	.	.	.	.	.	16e\JJ)
(8DD/L	(8DDD/L	(8DD/L	(8D/L	(8A\L	(8d\L	(16f#\LL
.	.	.	.	.	.	16d\
8DD/	8DDD/	8DD/	8D/	8A\	8d\	16A\
.	.	.	.	.	.	16B-\JJ)
8DD/	8DDD/	8DD/	8F#/	8A\	8d\	(16c/LL
.	.	.	.	.	.	16A/
8DD/J)	8DDD/J)	8DD/J)	8F#/J)	8A\J)	8d\J)	16F#/
.	.	.	.	.	.	16A/JJ)
=44	=44	=44	=44	=44	=44	=44
(8GG/L	(8GGG/L	(8GG/L	8D/L	8G\L	8d\L	8B-/L
8GG/	8GGG/	8GG/	(16B-/LL	(16d\LL	(16g\LL	8G/J
.	.	.	16A/JJ)	16c\JJ)	16f#\JJ)	.
8GG/	8GGG/	8GG/	8B-\L	8d\L	8g\L	8r
8GG/J)	8GGG/J)	8GG/J)	(16B-\LL	(16d\LL	(16g\LL	8g\
.	.	.	16A\JJ)	16c\JJ)	16f#\JJ)	.
(8D/L	(8DD/L	(8D/L	(8B\L	(8d\L	(8g\L	8ff\L
8D/	8DD/	8D/	8B\	8d\	8g\	(16ff\LL
.	.	.	.	.	.	16ee-\JJ)
8D/	8DD/	8D/	8B\	8d\	8g\	8ff\L
8D/J)	8DD/J)	8D/J)	8B\J)	8d\J)	8g\J)	(16ff\LL
.	.	.	.	.	.	16ee-\JJ)
=45	=45	=45	=45	=45	=45	=45
(8BB/L	(8BBB/L	(8BB/L	(8G/L	(8d\L	(8g\L	(16ff\LL
.	.	.	.	.	.	16dd\
8BB/	8BBB/	8BB/	8G/	8d\	8g\	16b\
.	.	.	.	.	.	16cc\JJ)
8BB/	8BBB/	8BB/	8G/	8d\	8g\	(16dd\LL
.	.	.	.	.	.	16b\
8BB/J)	8BBB/J)	8BB/J)	8G/J)	8d\J)	8g\J)	16g\
.	.	.	.	.	.	16a\JJ)
(8GG/L	(8GGG/L	(8GG/L	(8G/L	(8d\L	(8g\L	(16b\LL
.	.	.	.	.	.	16g\
8GG/	8GGG/	8GG/	8G/	8d\	8g\	16d\
.	.	.	.	.	.	16e-\JJ)
8GG/	8GGG/	8GG/	8B/	8d\	8g\	(16f\LL
.	.	.	.	.	.	16d\
8GG/J)	8GGG/J)	8GG/J)	8B/J)	8d\J)	8g\J)	16B\
.	.	.	.	.	.	16d\JJ)
=46	=46	=46	=46	=46	=46	=46
8C/L	8CC/L	8C/L	8c\L	8e-\L	8g\L	16e-\LL
.	.	.	.	.	.	16g\JJ
8C/	8CC/	8C/	8c\	8e-\	16e-\LL	[8cc\J
.	.	.	.	.	16g\JJ	.
8C/	8CC/	8C/	8G\	8e-\	8.cc\L	16cc\LL]
.	.	.	.	.	.	16g\
8C/J	8CC/J	8C/J	8G\J	8e-\J	.	16e-\
.	.	.	.	.	16g\Jk	16c\JJ
8C/L	8CC/L	8C/L	8c\L	8e-\L	16e-\LL	16g\LL
.	.	.	.	.	16c\	16f\JJ
8C/	8CC/	8C/	8c\	8e-\	16g\	[8g\J
.	.	.	.	.	16f\JJ	.
8C/	8CC/	8C/	8c\	8e-\	8.g\L	16g\LL]
.	.	.	.	.	.	16e-\
8C/J	8CC/J	8C/J	8c\J	8e-\J	.	16c\
.	.	.	.	.	16e-\Jk	16G\JJ
=47	=47	=47	=47	=47	=47	=47
8C/L	8CC/L	8C/L	8G/L	8e-\L	16c/LL	16c/LL
.	.	.	.	.	16G/	16B/JJ
8C/	8CC/	8C/	8G/	8e-\	16c/	[8c/J
.	.	.	.	.	16B/JJ	.
8C/	8CC/	8C/	8G/	8e-\	8.c/L	16c/LL]
.	.	.	.	.	.	16G/JJ
8C/J	8CC/J	8C/J	8G/J	8e-\J	.	[8e-/J
.	.	.	.	.	16G/Jk	.
8C/L	8CC/L	8C/L	8G\L	8c\L	8.e-\L	16e-\LL]
.	.	.	.	.	.	16c\JJ
8C/	8CC/	8C/	8G\	8c\	.	[8g\J
.	.	.	.	.	16c\Jk	.
8C/	8CC/	8C/	8c\	8e-\	8.g\L	16g\LL]
.	.	.	.	.	.	16e-\JJ
8C/J	8CC/J	8C/J	8c\J	8e-\J	.	[8cc\J
.	.	.	.	.	16e-\Jk	.
=48	=48	=48	=48	=48	=48	=48
8C/L	8CC/L	8C/L	8G/L	8e-\L	8.cc\L	16cc\LL]
.	.	.	.	.	.	16g\
8C/	8CC/	8C/	8G/	8e-\	.	16ee-\
.	.	.	.	.	16g\Jk	16b\JJ
8C/	8CC/	8C/	8G/	8e-\	16ee-\LL	16cc\LL
.	.	.	.	.	16b\	16g\
8C/J	8CC/J	8C/J	8G/J	8e-\J	16cc\	16e-\
.	.	.	.	.	16g\JJ	16B\JJ
8C/L	8CC/L	8C/L	8G/L	8e-\L	16e-/LL	16c/LL
.	.	.	.	.	16B/	16G/
8C/	8CC/	8C/	8G/	8e-\	16c/	16E-/
.	.	.	.	.	16G/JJ	16G/JJ
8C/	8CC/	8C/	8G/	8e-\	16E-/LL	(16c\LL
.	.	.	.	.	16G/	16B\)
8C/J	8CC/J	8C/J	8G/J	8e-\J	(16c/	(16e-\
.	.	.	.	.	16B/JJ)	16d\JJ)
=49	=49	=49	=49	=49	=49	=49
8C/L	8CC/L	8C/L	8c\L	8e-\L	(16e-\LL	(16g\LL
.	.	.	.	.	16d\)	16f\
8C/	8CC/	8C/	8c\	8e-\	(16g\	16e-\)
.	.	.	.	.	16f\JJ)	16g\JJ
8C/	8CC/	8C/	8c\	8e-\	(16e-\LL	(16cc\LL
.	.	.	.	.	16g\)	16b-\)
8C/J	8CC/J	8C/J	8c\J	8e-\J	(16cc\	(16a-\
.	.	.	.	.	16b-\JJ)	16g\JJ)
8FF/L	8FFF/L	8FF/L	8c\L	8c\L	(16a-\LL	(16f\LL
.	.	.	.	.	16g\)	16e-\)
8FF/	8FFF/	8FF/	8c\	8c\	(16f\	(16a-\
.	.	.	.	.	16e-\JJ)	16g\JJ)
8FF/	8FFF/	8FF/	8f\	8d\	(16a-\LL	(16f\LL
.	.	.	.	.	16g\)	16e-\)
8FF/J	8FFF/J	8FF/J	8f\J	8d\J	(16f\	(16d\
.	.	.	.	.	16e-\JJ)	16c\JJ)
=50	=50	=50	=50	=50	=50	=50
8GG/L	8GGG/L	8GG/L	8f\L	8G\L	(16d\LL	16B\LL
.	.	.	.	.	16c\	16d\JJ
8GG/	8GGG/	8GG/	8f\	8G\	16B\)	[8f\J
.	.	.	.	.	16d\JJ	.
8GG/	8GGG/	8GG/	8d\	8B\	8.f\L	16f\LL]
.	.	.	.	.	.	16b\
8GG/J	8GGG/J	8GG/J	8d\J	8B\J	.	16dd\
.	.	.	.	.	16b\Jk	16g\JJ
8GG/L	8GGG/L	8GG/L	8G\L	8d\L	16dd\LL	16b\LL
.	.	.	.	.	16g\	16d\JJ
8GG/	8GGG/	8GG/	8G\	8d\	16b\	[8f\J
.	.	.	.	.	16d\JJ	.
8GG/	8GGG/	8GG/	8B\	8d\	8.f\L	16f\LL]
.	.	.	.	.	.	16B\
8GG/J	8GGG/J	8GG/J	8B\J	8d\J	.	16d\
.	.	.	.	.	16B\Jk	16G\JJ
=51	=51	=51	=51	=51	=51	=51
8GG/L	8GGG/L	8GG/L	8d\L	8G\L	16d/LL	16B/LL
.	.	.	.	.	16G/	16D/JJ
8GG/	8GGG/	8GG/	8d\	8G\	16B/	[8F/J
.	.	.	.	.	16D/JJ	.
8GG/	8GGG/	8GG/	8d\	8B\	8.F/L	16F/LL]
.	.	.	.	.	.	16G/
8GG/J	8GGG/J	8GG/J	8d\J	8B\J	.	16B/
.	.	.	.	.	16G/Jk	16G/JJ
8FF/L	8FFF/L	8FF/L	8G/L	8G\L	16B/LL	16d\LL
.	.	.	.	.	16G/	16B\
8FF/	8FFF/	8FF/	8G/	8B\	16d/	16g\
.	.	.	.	.	16B/JJ	16d\JJ
8FF/	8FFF/	8FF/	8G/	8d\	16g\LL	16b\LL
.	.	.	.	.	16d\	16g\
8FF/J	8FFF/J	8FF/J	8G/J	8d\J	16b\	16dd\
.	.	.	.	.	16g\JJ	16b\JJ
=52	=52	=52	=52	=52	=52	=52
8EE-/L	8EEE-/L	8EE-/L	8G/L	8c\L	(16cc\LL	16ee-\LL
.	.	.	.	.	16a-\	16b\
8FF/	8FFF/	8FF/	8A-/	8c\	16g\)	16cc\
.	.	.	.	.	16f\JJ	16dd\JJ
8GG/	8GGG/	8GG/	8G/	8g\	8e-\L	8.bt\L
8GG/J	8GGG/J	8GG/J	8G/J	8f\J	16d\LL	.
.	.	.	.	.	16c\JJ	16cc\Jk
(8C/L	(8CC/L	(8C/L	8G/L	8e-\L	8c\L	4cc\
8C/	8CC/	8C/	(16E-/LL	(16G\LL	(16c\LL	.
.	.	.	16D/JJ)	16F\JJ)	16B\JJ)	.
8C/	8CC/	8C/	8E-/L	8G/L	8c\L	8r
8C/J)	8CC/J)	8C/J)	(16E-/LL	(16G/LL	(16c\LL	8c\
.	.	.	16F/JJ)	16F/JJ)	16B\JJ)	.
=53	=53	=53	=53	=53	=53	=53
(8G\L	(8GG\L	(8G\L	(8G/L	(8E/L	(8c\L	8b-\L
8G\	8GG\	8G\	8G/	8E/	8c\	(16b-\LL
.	.	.	.	.	.	16a\JJ)
8G\	8GG\	8G\	8G/	8E/	8c\	8b-\L
8G\J)	8GG\J)	8G\J)	8G/J)	8E/J)	8c\J)	(16b-\LL
.	.	.	.	.	.	16a\JJ)
(8E\L	(8EE\L	(8E\L	(8C/L	(8G/L	(8c\L	(16b-\LL
.	.	.	.	.	.	16g\
8E\	8EE\	8E\	8C/	8G/	8c\	16e\
.	.	.	.	.	.	16f\JJ)
8E\	8EE\	8E\	8C/	8G/	8c\	(16g\LL
.	.	.	.	.	.	16e\
8E\J)	8EE\J)	8E\J)	8C/J)	8G/J)	8c\J)	16c\
.	.	.	.	.	.	16d\JJ)
=54	=54	=54	=54	=54	=54	=54
(8C/L	(8CC/L	(8C/L	(8C/L	(8G/L	(8c\L	(16e/LL
.	.	.	.	.	.	16c/
8C/	8CC/	8C/	8C/	8G/	8c\	16G/
.	.	.	.	.	.	16A/JJ)
8C/	8CC/	8C/	8E/	8G/	8c\	(16B-/LL
.	.	.	.	.	.	16G/
8C/J)	8CC/J)	8C/J)	8E/J)	8G/J)	8c\J)	16E/
.	.	.	.	.	.	16G/JJ)
(8F\L	(8FF\L	(8F\L	(8C/L	8F/L	8c/L	8A/L
8F\	8FF\	8F\	8C/J)	(16F/LL	(16A/LL	8F/J
.	.	.	.	16E/JJ)	16G/JJ)	.
8F\	8FF\	8F\	8C/L	8F/L	8A/L	8r
8F\J)	8FF\J)	8F\J)	(16C/LL	(16E/LL	(16A/LL	8A/
.	.	.	16D/JJ)	16D/JJ)	16G/JJ)	.
=55	=55	=55	=55	=55	=55	=55
(8E\L	(8EE\L	(8E\L	(8E/L	(8C#/L	(8A/L	8g\L
8E\	8EE\	8E\	8E/	8C#/	8A/	(16g\LL
.	.	.	.	.	.	16f\JJ)
8E\	8EE\	8E\	8E/	8C#/	8A/	8g\L
8E\J)	8EE\J)	8E\J)	8E/J)	8C#/J)	8A/J)	(16g\LL
.	.	.	.	.	.	16f\JJ)
(8C#/L	(8CC#/L	(8C#/L	(8A\L	(8E/L	(8A/L	(16g\LL
.	.	.	.	.	.	16e\
8C#/	8CC#/	8C#/	8A\	8E/	8A/	16c#\
.	.	.	.	.	.	16d\JJ)
8C#/	8CC#/	8C#/	8A\	8E/	8A/	(16e\LL
.	.	.	.	.	.	16c#\
8C#/J)	8CC#/J)	8C#/J)	8A\J)	8E/J)	8A/J)	16A\
.	.	.	.	.	.	16B\JJ)
=56	=56	=56	=56	=56	=56	=56
(8AA/L	(8AAA/L	(8AA/L	(8A\L	(8E/L	(8A/L	(16c#/LL
.	.	.	.	.	.	16A/
8AA/	8AAA/	8AA/	8A\	8E/	8A/	16E/
.	.	.	.	.	.	16F/JJ)
8AA/J)	8AAA/J)	8AA/J)	8c#\	8E/	8A/	(16G/LL
.	.	.	.	.	.	16E/
8AA/	8AAA/	8A\	8c#\J)	8E/J)	8A/J)	16C#/
.	.	.	.	.	.	16E/JJ)
8DD/L	8DDD/L	8d\L	4d\	4D/	4A/	8F/L
8DD/	8DDD/	(16d\LL	.	.	.	8D/J
.	.	16c#\JJ)	.	.	.	.
8DD/	8DDD/	8d\L	4r	4r	4r	8r
8DD/J	8DDD/J	(16d\LL	.	.	.	8A/
.	.	16c#\JJ)	.	.	.	.
=57	=57	=57	=57	=57	=57	=57
8DD/L	8DDD/L	(16d\LL	1r	4r	2r	8d\L
.	.	16A\	.	.	.	.
8DD/	8DDD/	16F\	.	.	.	(16d\LL
.	.	16G\JJ)	.	.	.	16c#\JJ)
8DD/	8DDD/	(16A\LL	.	8r	.	8d\L
.	.	16F\	.	.	.	.
8DD/J	8DDD/J	16D\	.	8A\	.	(16d\LL
.	.	16E\JJ)	.	.	.	16c#\JJ)
8DD/L	8DDD/L	8F\L	.	8d\L	4r	(16d/LL
.	.	.	.	.	.	16A/
8DD/	8DDD/	16D\LL	.	(16d\LL	.	16F/
.	.	16E\JJ	.	16c#\JJ)	.	16G/JJ)
8DD/	8DDD/	8F\L	.	8d\L	8r	(16A/LL
.	.	.	.	.	.	16F/
8DD/J	8DDD/J	16F\LL	.	(16d\LL	8A/	16D/
.	.	16G\JJ	.	16c#\JJ)	.	16E/JJ)
=58	=58	=58	=58	=58	=58	=58
8DD/L	8DDD/L	8A\L	4r	8d\L	8d\L	(16F/LL
.	.	.	.	.	.	16A/
8DD/	8DDD/	(16A\LL	.	8A\	(16d\LL	16F/)
.	.	16G\JJ)	.	.	16c#\JJ)	16E/JJ
8DD/	8DDD/	8A\L	8r	8F\	8d\L	(16F/LL
.	.	.	.	.	.	16A/
8DD/J	8DDD/J	(16A\LL	8A\	8A\J	(16d\LL	16F/)
.	.	16G\JJ)	.	.	16c#\JJ)	16E/JJ
8DD/L	8DDD/L	8A\L	8d\L	8F/L	(16d/LL	8F/L
.	.	.	.	.	16A/	.
8DD/	8DDD/	(16A\LL	(16d\LL	16F/LL	16F/	16D/LL
.	.	16G\JJ)	16c#\JJ)	16E/JJ	16G/JJ)	16E/JJ
8DD/	8DDD/	8F\L	8d\L	8D/L	(16A/LL	8F/L
.	.	.	.	.	16F/	.
8DD/J	8DDD/J	(16F\LL	(16d\LL	16A/LL	16D/	16F/LL
.	.	16E\JJ)	16c#\JJ)	16G/JJ	16E/JJ)	16G/JJ
=59	=59	=59	=59	=59	=59	=59
8D\L	8DD\L	8D\L	8d\L	8F/L	(16F/LL	(16A\LL
.	.	.	.	.	16A/	16f\
8D\	8DD\	8d\	8A\	16A/LL	16F/)	16d\)
.	.	.	.	16G/JJ	16E/JJ	16c#\JJ
8D\	8DD\	8d\	8F\	8A/L	(16F/LL	(16d\LL
.	.	.	.	.	16A/	16f\
8D\J	8DD\J	8d\J	8A\J	16A/LL	16F/)	16d\)
.	.	.	.	16G/JJ	16E/JJ	16c#\JJ
8d\L	8D\L	8d\L	8D/L	8F/L	8F/L	16d\LL
.	.	.	.	.	.	16A\
16c#\LL	16C#\LL	16c#\LL	16F/LL	16A/LL	16D/LL	16B\
16B\JJ	16BB\JJ	16B\JJ	16G/JJ	16G/JJ	16E/JJ	16c#\JJ
16A\LL	16AA\LL	16A\LL	8A/L	16F/LL	8F/L	16d\LL
16G\	16GG\	16G\	.	16E/	.	16c#\
16F\	16FF\	16F\	16A/LL	16D/	16F/LL	16d\
16E\JJ	16EE\JJ	16E\JJ	16G/JJ	16C#/JJ	16G/JJ	16e\JJ
=60	=60	=60	=60	=60	=60	=60
8D\L	8DD\L	8D\L	8F/L	8D/L	(16A\LL	(16f\LL
.	.	.	.	.	16f\	16a\
8D\	8DD\	8D\	16A/LL	8A/	16d\)	16f\)
.	.	.	16G/JJ	.	16c#\JJ	16e\JJ
8D\	8DD\	8D\	8A/L	8F/	(16d\LL	(16f\LL
.	.	.	.	.	16f\	16a\
8D\J	8DD\J	8D\J	16A/LL	8A/J	16d\)	16f\)
.	.	.	16G/JJ	.	16c#\JJ	16e\JJ
8D/L	8DD/L	8D/L	8F/L	8D/L	16d\LL	8f\L
.	.	.	.	.	16A\	.
16C#/LL	16CC#/LL	16C#/LL	16A/LL	16F/LL	16B\	16d\LL
16BB/JJ	16BBB/JJ	16BB/JJ	16G/JJ	16G/JJ	16c#\JJ	16e\JJ
16AA/LL	16AAA/LL	16AA/LL	16F/LL	8A/L	16d\LL	8f\L
16GG/	16GGG/	16GG/	16E/	.	16c#\	.
16FF/	16FFF/	16FF/	16D/	16A/LL	16d\	16f\LL
16EE/JJ	16EEE/JJ	16EE/JJ	16C#/JJ	16G/JJ	16e\JJ	16g\JJ
=61	=61	=61	=61	=61	=61	=61
8DD/L	8DDD/L	8DD/L	8D/L	8F/L	(16f\LL	(16a\LL
.	.	.	.	.	16a\	16ff\
8DD/	8DDD/	8DD/	8D/	16A/LL	16f\)	16dd\)
.	.	.	.	16G/JJ	16e\JJ	16cc#\JJ
8DD/	8DDD/	8DD/	8D/	8A/L	(16f\LL	(16dd\LL
.	.	.	.	.	16a\	16ff\
8DD/J	8DDD/J	8DD/J	8D/J	16A/LL	16f\)	16dd\)
.	.	.	.	16G/JJ	16e\JJ	16cc#\JJ
8DD/	8DDD/	8DD/	16d\LL	16F\LL	8f\L	8dd\L
.	.	.	16e\	16g\	.	.
8r	8r	8r	16f\	16f\	8d\J	8d\J
.	.	.	16e\JJ	16e\JJ	.	.
4r	4r	4r	16d\LL	16d\LL	8r	4r
.	.	.	16c\	16c\	.	.
.	.	.	16B-\	16B-\	8a\	.
.	.	.	16A\JJ	16A\JJ	.	.
=62	=62	=62	=62	=62	=62	=62
1r	1r	1r	4G/	8G/	(16b-\LL	4r
.	.	.	.	.	16a\	.
.	.	.	.	8d\	16g\)	.
.	.	.	.	.	16a\JJ	.
.	.	.	8r	(16g\LL	16b-\LL	8r
.	.	.	.	16f\JJ)	16a\	.
.	.	.	8E/	8g\J	16g\	8b-\
.	.	.	.	.	16f\JJ	.
.	.	.	(16A\LL	8r	16e\LL	(16cc\LL
.	.	.	16G#\JJ)	.	16d\	16b-\
.	.	.	8A\J	8c\	16c\	16a\)
.	.	.	.	.	16B-\JJ	16b-\JJ
.	.	.	8r	(16f\LL	8A\L	16cc\LL
.	.	.	.	16e\JJ)	.	16b-\
.	.	.	8F/	8f\J	8cc\J	16a\
.	.	.	.	.	.	16g\JJ
=63	=63	=63	=63	=63	=63	=63
1r	1r	1r	(16B-\LL	8r	(16dd\LL	16f\LL
.	.	.	16A\JJ)	.	16cc\	16e-\
.	.	.	8B-\J	8d\	16b-\)	16d\
.	.	.	.	.	16cc\JJ	16c\JJ
.	.	.	8r	(16g\LL	16dd\LL	8B-\L
.	.	.	.	16f#\JJ)	16cc\	.
.	.	.	8G/	8g\J	16b-\	8dd\J
.	.	.	.	.	16a\JJ	.
.	.	.	(16c\LL	8r	16g\LL	(16ee-\LL
.	.	.	16B\JJ)	.	16f\	16dd\
.	.	.	8c\J	8g\	16e-\	16cc\)
.	.	.	.	.	16d\JJ	16dd\JJ
.	.	.	8r	(16a\LL	16c\LL	16ee-\LL
.	.	.	.	16g\JJ)	16b-\	16dd\
.	.	.	8A\	8a\J	16a\	16cc\
.	.	.	.	.	16g\JJ	16b-\JJ
=64	=64	=64	=64	=64	=64	=64
1r	1r	1r	(16d\LL	8r	16f#\LL	16a\LL
.	.	.	16c#\JJ)	.	16e\	16g\
.	.	.	8d\J	8A\	16d\	16f#\
.	.	.	.	.	16e\JJ	16e\JJ
.	.	.	8r	(16d\LL	16f#\LL	8d\L
.	.	.	.	16c#\JJ)	16e\	.
.	.	.	8B-\	8d\J	16d\	8f#\J
.	.	.	.	.	16c\JJ	.
.	.	.	(16e-\LL	8r	16B-/LL	16g\LL
.	.	.	16d\JJ)	.	16A/	16f\
.	.	.	8e-\J	8B-\	16G/	16e-\
.	.	.	.	.	16F/JJ	16d\JJ
.	.	.	8r	(16e-\LL	16E-/LL	16c/LL
.	.	.	.	16d\JJ)	16G/JJ	16B-/
.	.	.	8A\	8e-\J	[8c/J	16A/
.	.	.	.	.	.	16G/JJ
=65	=65	=65	=65	=65	=65	=65
2r	2r	2r	16d/LL	16r	16c/LL]	8F#/L
.	.	.	16D/	16A\LL	16d/	.
.	.	.	16G/	16B-\	16B-/	16G/LL
.	.	.	16C/JJ	16G\JJ	16c/JJ	16A/JJ
.	.	.	8D/L	8F#\L	8.At/L	8D/
.	.	.	8D/J	8d\J	.	8f#\
.	.	.	.	.	16G/Jk	.
8GG/L	8GGG/L	8r	8G\L	8B-\L	4G/	8g\L
8GG/	8GGG/	16GG/LL	8B-\	8d\	.	(16g\LL
.	.	16AA/JJ	.	.	.	16f#\JJ)
8GG/	8GGG/	8BB-/L	8B-\	8d\	4r	8g\L
8GG/J	8GGG/J	8D/J	8B-\J	8d\J	.	(16g\LL
.	.	.	.	.	.	16f#\JJ)
=66	=66	=66	=66	=66	=66	=66
8GG/L	8GGG/L	8G\L	8B-\L	8d\L	4r	(16g\LL
.	.	.	.	.	.	16d\
8GG/	8GGG/	(16G\LL	8B-\	8d\	.	16B-\
.	.	16F#\JJ)	.	.	.	16c\JJ)
8GG/	8GGG/	8G\L	8B-\	8d\	8r	(16d/LL
.	.	.	.	.	.	16B-/
8GG/J	8GGG/J	(16G\LL	8B-\J	8d\J	8d\	16G/
.	.	16F#\JJ)	.	.	.	16A/JJ)
8GG/L	8GGG/L	8G\L	8B-\L	8d\L	8g\L	(16B-/LL
.	.	.	.	.	.	16d/
8GG/	8GGG/	8D\	8B-\	8d\	(16g\LL	16B-/)
.	.	.	.	.	16f#\JJ)	16A/JJ
8GG/	8GGG/	8BB-\	8B-\	8d\	8g\L	(16B-/LL
.	.	.	.	.	.	16d/
8GG/J	8GGG/J	8D\J	8B-\J	8d\J	(16g\LL	16B-/)
.	.	.	.	.	16f#\JJ)	16A/JJ
=67	=67	=67	=67	=67	=67	=67
8GG/L	8GGG/L	8GG/L	8B-\L	8d\L	(16g\LL	8B-/L
.	.	.	.	.	16d\	.
8GG/	8GGG/	(16GG/LL	8B-\	8d\	16B-\	16G/LL
.	.	16FF#/JJ)	.	.	16c\JJ)	16A/JJ
8GG/	8GGG/	8GG/L	8B-\	8d\	(16d/LL	8B-/L
.	.	.	.	.	16B-/	.
8GG/J	8GGG/J	(16GG/LL	8B-\J	8d\J	16G/	16B-/LL
.	.	16FF#/JJ)	.	.	16A/JJ)	16c/JJ
4GG/	4GGG/	4GG/	4B-\	4d\	(16B-/LL	(16d\LL
.	.	.	.	.	16d/	16b-\
.	.	.	.	.	16B-/)	16g\)
.	.	.	.	.	16A/JJ	16f#\JJ
4r	4r	8r	4r	4r	(16B-/LL	(16g\LL
.	.	.	.	.	16d/	16b-\
.	.	8GG/	.	.	16B-/)	16g\)
.	.	.	.	.	16A/JJ	16f\JJ
=68	=68	=68	=68	=68	=68	=68
1r	1r	(16C/LL	1r	1r	4G/	4e\
.	.	16E/	.	.	.	.
.	.	16C/)	.	.	.	.
.	.	16BB-/JJ	.	.	.	.
.	.	(16C/LL	.	.	8r	8r
.	.	16E/	.	.	.	.
.	.	16C/)	.	.	8G/	8e\
.	.	16BB-/JJ	.	.	.	.
.	.	4AA/	.	.	(16c\LL	(16a\LL
.	.	.	.	.	16e-\	16cc\
.	.	.	.	.	16c\)	16a\)
.	.	.	.	.	16B-\JJ	16g\JJ
.	.	8r	.	.	(16c\LL	(16a\LL
.	.	.	.	.	16e-\	16cc\
.	.	8A\	.	.	16c\)	16a\)
.	.	.	.	.	16B-\JJ	16g\JJ
=69	=69	=69	=69	=69	=69	=69
1r	1r	(16d\LL	1r	1r	4A/	4f#\
.	.	16c\	.	.	.	.
.	.	16d\)	.	.	.	.
.	.	16e-\JJ	.	.	.	.
.	.	16d\LL	.	.	4r	8r
.	.	16c\	.	.	.	.
.	.	16B-\	.	.	.	8a\
.	.	16A\JJ	.	.	.	.
.	.	(16B-\LL	.	.	4r	(16dd\LL
.	.	16A\	.	.	.	16cc\
.	.	16G\)	.	.	.	16b-\)
.	.	16A\JJ	.	.	.	16cc\JJ
.	.	8B-\L	.	.	8r	16dd\LL
.	.	.	.	.	.	16cc\
.	.	8G\J	.	.	8d\	16b-\
.	.	.	.	.	.	16a\JJ
=70	=70	=70	=70	=70	=70	=70
1r	1r	8c\	1r	1r	(16e-\LL	(16g\LL
.	.	.	.	.	16d\	16f#\
.	.	8G\	.	.	16c\)	16e\)
.	.	.	.	.	16d\JJ	16f#\JJ
.	.	(16c\LL	.	.	16e-\LL	16g\LL
.	.	16B-\JJ)	.	.	16d\	16b-\
.	.	8c\J	.	.	16c\	16a\
.	.	.	.	.	16B-\JJ	16b-\JJ
.	.	8r	.	.	(16A/LL	(16cc\LL
.	.	.	.	.	16G/	16b-\
.	.	8c\	.	.	16F#/)	16a\)
.	.	.	.	.	16G/JJ	16b-\JJ
.	.	(16e-\LL	.	.	16A/LL	16cc\LL
.	.	16d\JJ)	.	.	16B-/	16b-\
.	.	8e-\J	.	.	16c/	16a\
.	.	.	.	.	16A/JJ	16g\JJ
=71	=71	=71	=71	=71	=71	=71
1r	1r	8r	1r	1r	(16d/LL	(16f#\LL
.	.	.	.	.	16c/	16e\
.	.	8D\	.	.	16B-/)	16d\)
.	.	.	.	.	16c/JJ	16e\JJ
.	.	(16d\LL	.	.	16d/LL	16f#\LL
.	.	16e-\JJ)	.	.	16c/	16a\
.	.	8d\J	.	.	16B-/	16g\
.	.	.	.	.	16A/JJ	16a\JJ
.	.	8r	.	.	(16G/LL	(16b-\LL
.	.	.	.	.	16A/	16a\
.	.	8G\	.	.	16B-/)	16g\)
.	.	.	.	.	16A/JJ	16a\JJ
.	.	(16d\LL	.	.	16G/LL	16b-\LL
.	.	16c\JJ)	.	.	16A/	16a\
.	.	8d\J	.	.	16B-/	16g\
.	.	.	.	.	16G/JJ	16f\JJ
=72	=72	=72	=72	=72	=72	=72
1r	1r	16r	1r	1r	[4c\	(16e\LL
.	.	16B-\LL	.	.	.	16g\
.	.	16A\	.	.	.	16f#\
.	.	16G\JJ	.	.	.	16g\JJ)
.	.	16F#\LL	.	.	16c/LL]	[4a\
.	.	16G\	.	.	16A/	.
.	.	16E\	.	.	16G/	.
.	.	16F#\JJ	.	.	16A/JJ	.
.	.	8G\L	.	.	16B-/LL	16a\LL]
.	.	.	.	.	16A/	16d\
.	.	16E-\LL	.	.	16B-/	16g\
.	.	16C\JJ	.	.	16c/JJ	16a\JJ
.	.	8D/L	.	.	8.At/L	8.f#t\L
.	.	8DD/J	.	.	.	.
.	.	.	.	.	16G/Jk	16g\Jk
=73	=73	=73	=73	=73	=73	=73
8GG/L	8GGG/L	8GG/L	8B-\L	8d\L	8G/	16g\LL
.	.	.	.	.	.	16f#\JJ
8GG/	8GGG/	8GG/	8B-\	8d\	16g\LL	[8g\J
.	.	.	.	.	16f#\JJ	.
8GG/	8GGG/	8GG/	8B-\	8d\	8.g\L	16g\LL]
.	.	.	.	.	.	16d\
8GG/J	8GGG/J	8GG/J	8B-\J	8d\J	.	16B-\
.	.	.	.	.	16d\Jk	16G\JJ
8GG/L	8GGG/L	8GG/L	8B-\L	8d\L	16B-/LL	16d\LL
.	.	.	.	.	16G/	16c\JJ
8GG/	8GGG/	8GG/	8B-\	8d\	16d/	[8d\J
.	.	.	.	.	16c/JJ	.
8GG/	8GGG/	8GG/	8B-\	8d\	8.d/L	16d/LL]
.	.	.	.	.	.	16B-/
8GG/J	8GGG/J	8GG/J	8B-\J	8d\J	.	16G/
.	.	.	.	.	16B-/Jk	16D/JJ
=74	=74	=74	=74	=74	=74	=74
8GG/L	8GGG/L	8GG/L	8B-\L	8d\L	16G/LL	16G/LL
.	.	.	.	.	16D/	16F#/JJ
8GG/	8GGG/	8GG/	8B-\	8d\	16G/	[8G/J
.	.	.	.	.	16F#/JJ	.
8GG/	8GGG/	8GG/	8B-\	8d\	8.G/L	16G/LL]
.	.	.	.	.	.	16D/JJ
8GG/J	8GGG/J	8GG/J	8B-\J	8d\J	.	[8B-/J
.	.	.	.	.	16D/Jk	.
8GG/L	8GGG/L	8GG/L	8B-\L	8d\L	8.B-/L	16B-/LL]
.	.	.	.	.	.	16G/JJ
8GG/	8GGG/	8GG/	8B-\	8d\	.	[8d/J
.	.	.	.	.	16G/Jk	.
8GG/	8GGG/	8GG/	8B-\	8d\	8.d\L	16d\LL]
.	.	.	.	.	.	16B-\JJ
8GG/J	8GGG/J	8GG/J	8B-\J	8d\J	.	[8g\J
.	.	.	.	.	16B-\Jk	.
=75	=75	=75	=75	=75	=75	=75
8GG/L	8GGG/L	8GG/L	8B-\L	8d\L	8.g\L	16g\LL]
.	.	.	.	.	.	16d\
8GG/	8GGG/	8GG/	8B-\	8d\	.	16b-\
.	.	.	.	.	16d\Jk	16f#\JJ
8GG/	8GGG/	8GG/	8B-\	8d\	16b-\LL	16g\LL
.	.	.	.	.	16f#\	16d\
8GG/J	8GGG/J	8GG/J	8B-\J	8d\J	16g\	16B-\
.	.	.	.	.	16d\JJ	16F#\JJ
8GG/L	8GGG/L	8GG/L	8G/L	8d\L	16B-/LL	16G/LL
.	.	.	.	.	16F#/	16D/
8GG/	8GGG/	8GG/	8G/	8d\	16G/	16B-/
.	.	.	.	.	16D/JJ	16G/JJ
8GG/	8GGG/	8GG/	8G/	8d\	16B/LL	16d\LL
.	.	.	.	.	16G/	16B\JJ
8GG/J	8GGG/J	8GG/J	8G/J	8d\J	16d/	[8f\J
.	.	.	.	.	16B/JJ	.
=76	=76	=76	=76	=76	=76	=76
8C/L	8CC/L	8C/L	8G/L	8c\L	8g\L	16f\LL]
.	.	.	.	.	.	16d\
8C/	8CC/	8C/	8G/	8c\	16cc\LL	16e-\
.	.	.	.	.	16g\JJ	16c\JJ
8C/	8CC/	8C/	8G/	8c\	16e-\LL	16g\LL
.	.	.	.	.	16c\	16e-\JJ
8C/J	8CC/J	8C/J	8G/J	8c\J	16g\	[8cc\J
.	.	.	.	.	16e-\JJ	.
8C/L	8CC/L	8C/L	8A-\L	8e-\L	8.cc\L	16cc\LL]
.	.	.	.	.	.	16g\
8C/	8CC/	8C/	8c\	8e-\	.	16a-\
.	.	.	.	.	16g\Jk	16e-\JJ
8C/	8CC/	8C/	8c\	8e-\	16a-\LL	16cc\LL
.	.	.	.	.	16e-\	16a-\JJ
8C/J	8CC/J	8C/J	8c\J	8e-\J	16cc\	[8ee-\J
.	.	.	.	.	16a-\JJ	.
=77	=77	=77	=77	=77	=77	=77
8D\L	8DD\L	8D\L	8c\L	8A\L	8f#\L	16ee-\LL]
.	.	.	.	.	.	16cc\
8D\	8DD\	8D\	8c\	8A\	16ee-\LL	16a\
.	.	.	.	.	16cc\JJ	16f#\JJ
8D\	8DD\	8D\	8F#\	8A\	16a\LL	16cc\LL
.	.	.	.	.	16f#\	16a\
8D\J	8DD\J	8D\J	8F#\J	8A\J	16cc\	16f#\
.	.	.	.	.	16a\JJ	16d\JJ
8D\L	8DD\L	8D\L	8A\L	8d\L	16f#\LL	16a\LL
.	.	.	.	.	16d\	16f#\
8D\	8DD\	8D\	8A\	8d\	16a\	16c\
.	.	.	.	.	16f#\JJ	16A\JJ
8D\	8DD\	8D\	8A\	8f#\	16c/LL	16e-/LL
.	.	.	.	.	16A/JJ	16c/
8D\J	8DD\J	8D\J	8A\J	8f#\J	[8c/J	16A/
.	.	.	.	.	.	16F#/JJ
=78	=78	=78	=78	=78	=78	=78
8D\L	8DD\L	8D\L	8f#\L	8a\L	16c\LL]	8D/
.	.	.	.	.	16f#\JJ	.
8D\	8DD\	8D\	8f#\	8a\	[8a\J	16f#\LL
.	.	.	.	.	.	16a\JJ
8D\	8DD\	8D\	8d\	8f#\	16a\LL]	8.dd\L
.	.	.	.	.	16d\	.
8D\J	8DD\J	8D\J	8d\J	8f#\J	16f#\	.
.	.	.	.	.	16A\JJ	16f#\Jk
8D\L	8DD\L	8D\L	8A/L	8d\L	16c/LL	16a\LL
.	.	.	.	.	16F#/JJ	16d\
8D\	8DD\	8D\	8A/	8d\	[8A/J	16f#\
.	.	.	.	.	.	16A\JJ
8D\	8DD\	8D\	8F#/	8A\	16A/LL]	8.c/L
.	.	.	.	.	16D/	.
8D\J	8DD\J	8D\J	8F#/J	8A\J	16F#/	.
.	.	.	.	.	16A/JJ	16F#/Jk
=79	=79	=79	=79	=79	=79	=79
8D/L	8DD/L	8D/L	8D/L	8F#/L	16c/LL	16A/LL
.	.	.	.	.	16F#/	16D/
8D/	8DD/	8D/	8D/	8F#/	16A/	16F#/
.	.	.	.	.	16c/JJ	16A/JJ
8FF#/	8FFF#/	8FF#/	8A/	8A/	16e-\LL	16c\LL
.	.	.	.	.	16f#\	16e-\
8FF#/J	8FFF#/J	8FF#/J	8A/J	8A/J	16g\	16d\
.	.	.	.	.	16a\JJ	16c\JJ
8GG/L	8GGG/L	8GG/L	8G/L	8B-\L	8d\L	16B-\LL
.	.	.	.	.	.	16b-\
8C/	8CC/	8C/	8A/	8e-\	16c\LL	16a\
.	.	.	.	.	16B-\JJ	16g\JJ
8D/	8DD/	8D/	8A/	8d\	8.At/L	8.f#t\L
8DD/J	8DDD/J	8DD/J	8A/J	8d\J	.	.
.	.	.	.	.	16G/Jk	16g\Jk
=80	=80	=80	=80	=80	=80	=80
4GG/	4GGG/	16GG/LL	4B-\	4d\	4G/	4g\
.	.	16FF#/	.	.	.	.
.	.	16GG/	.	.	.	.
.	.	16AA/JJ	.	.	.	.
4r	4r	16BB/LL	4r	4r	8r	8r
.	.	16C/	.	.	.	.
.	.	16D/	.	.	16B/LL	16g\LL
.	.	16E-/JJ	.	.	16c/JJ	16a\JJ
2r	2r	8F/L	2r	2r	(16d\LL	(16b\LL
.	.	.	.	.	16f\	16dd\
.	.	8GG/	.	.	16d\)	16b\)
.	.	.	.	.	16c\JJ	16a\JJ
.	.	8F/	.	.	(16d\LL	(16b\LL
.	.	.	.	.	16f\	16dd\
.	.	8GG/J	.	.	16d\)	16b\)
.	.	.	.	.	16c\JJ	16a\JJ
=81	=81	=81	=81	=81	=81	=81
1r	1r	(16F\LL	1r	1r	4d\	4b\
.	.	16G\	.	.	.	.
.	.	16F\)	.	.	.	.
.	.	16D\JJ	.	.	.	.
.	.	(16F\LL	.	.	16r	16r
.	.	16G\	.	.	16f\LL	16dd\LL
.	.	16F\)	.	.	16d\	16b\
.	.	16D\JJ	.	.	16e-\JJ	16cc\JJ
.	.	8BB\L	.	.	(16f\LL	(16dd\LL
.	.	.	.	.	16a-\	16ff\
.	.	8G\	.	.	16f\)	16dd\)
.	.	.	.	.	16e-\JJ	16cc\JJ
.	.	8GG\	.	.	16f\LL	16dd\LL
.	.	.	.	.	16e-\	16cc\
.	.	8G\J	.	.	16d\	16b\
.	.	.	.	.	16f\JJ	16dd\JJ
=82	=82	=82	=82	=82	=82	=82
1r	1r	16C/LL	1r	1r	8e-\L	8cc\L
.	.	16GG/	.	.	.	.
.	.	16AA/	.	.	8c\J	8g\J
.	.	16BB/JJ	.	.	.	.
.	.	16C/LL	.	.	8r	8r
.	.	16BB/	.	.	.	.
.	.	16C/	.	.	16A/LL	16f\LL
.	.	16D/JJ	.	.	16B-/JJ	16g\JJ
.	.	8E-/L	.	.	(16c\LL	(16a\LL
.	.	.	.	.	16e-\	16cc\
.	.	8FF/	.	.	16c\)	16a\)
.	.	.	.	.	16B-\JJ	16g\JJ
.	.	8E-/	.	.	(16c\LL	(16a\LL
.	.	.	.	.	16e-\	16cc\
.	.	8FF/J	.	.	16c\)	16a\)
.	.	.	.	.	16B-\JJ	16g\JJ
=83	=83	=83	=83	=83	=83	=83
1r	1r	(16E-\LL	1r	1r	4c\	4a\
.	.	16F\	.	.	.	.
.	.	16E-\)	.	.	.	.
.	.	16C\JJ	.	.	.	.
.	.	(16E-\LL	.	.	16r	16r
.	.	16F\	.	.	16e-\LL	16cc\LL
.	.	16E-\)	.	.	16c\	16a\
.	.	16C\JJ	.	.	16d\JJ	16b-\JJ
.	.	8AA/L	.	.	(16e-\LL	(16cc\LL
.	.	.	.	.	16g\	16ee-\
.	.	8F/	.	.	16e-\)	16cc\)
.	.	.	.	.	16d\JJ	16b-\JJ
.	.	8FF/	.	.	16e-\LL	16cc\LL
.	.	.	.	.	16d\	16b-\
.	.	8F/J	.	.	16c\	16a\
.	.	.	.	.	16e-\JJ	16cc\JJ
=84	=84	=84	=84	=84	=84	=84
1r	1r	(8BB-/L	8r	8r	8d\L	8b-\L
.	.	8BB-/	(16F/LL	(16B-\LL	(16d\LL	8B-\J
.	.	.	16E-/JJ)	16A\JJ)	16c\JJ)	.
.	.	8BB-/	8F/L	8B-\L	8d\L	8r
.	.	8BB-/J)	(16F/LL	(16B-\LL	(16d\LL	8B-/
.	.	.	16E-/JJ)	16A\JJ)	16c\JJ)	.
.	.	(8F\L	(8F/L	(8B-\L	(8d\L	8a-\L
.	.	8F\	8F/	8B-\	8d\	(16a-\LL
.	.	.	.	.	.	16g\JJ)
.	.	8F\	8F/	8B-\	8d\	8a-\L
.	.	8F\J)	8F/J)	8B-\J)	8d\J)	(16a-\LL
.	.	.	.	.	.	16g\JJ)
=85	=85	=85	=85	=85	=85	=85
1r	1r	(8D\L	(8F/L	(8B-\L	(8f\L	(16a-\LL
.	.	.	.	.	.	16f\
.	.	8D\	8F/	8B-\	8f\	16d\
.	.	.	.	.	.	16e-\JJ)
.	.	8D\	8F/	8B-\	8f\	(16f\LL
.	.	.	.	.	.	16d\
.	.	8D\J)	8F/J)	8B-\J)	8f\J)	16B-\
.	.	.	.	.	.	16c\JJ)
.	.	(8BB-/L	(8F/L	(8B-\L	(8f\L	(16d/LL
.	.	.	.	.	.	16B-/
.	.	8BB-/	8F/	8B-\	8f\	16F/
.	.	.	.	.	.	16G/JJ)
.	.	8BB-/	8F/	8d\	8f\	(16A-/LL
.	.	.	.	.	.	16F/
.	.	8BB-/J)	8F/J)	8d\J)	8f\J)	16D/
.	.	.	.	.	.	16F/JJ)
=86	=86	=86	=86	=86	=86	=86
8EE-/L	8EEE-/L	8EE-/L	8E-/L	8e-\L	16ee-\LL	8G\
.	.	.	.	.	16dd\JJ	.
8EE-/	8EEE-/	8EE-/	8E-/	8e-\	[8ee-\J	16ee-\LL
.	.	.	.	.	.	16dd\JJ
8EE-/	8EEE-/	8EE-/	8B-/	8g\	16ee-\LL]	8.ee-\L
.	.	.	.	.	16b-\	.
8EE-/J	8EEE-/J	8EE-/J	8B-/J	8g\J	16g\	.
.	.	.	.	.	16e-\JJ	16b-\Jk
8EE-/L	8EEE-/L	8EE-/L	8B-\L	8g\L	16b-\LL	16g\LL
.	.	.	.	.	16a-\JJ	16e-\
8EE-/	8EEE-/	8EE-/	8B-\	8g\	[8b-\J	16b-\
.	.	.	.	.	.	16a-\JJ
8EE-/	8EEE-/	8EE-/	8B-\	8g\	16b-\LL]	8.b-\L
.	.	.	.	.	16g\	.
8EE-/J	8EEE-/J	8EE-/J	8B-\J	8g\J	16e-\	.
.	.	.	.	.	16B-\JJ	16g\Jk
=87	=87	=87	=87	=87	=87	=87
8EE-/L	8EEE-/L	8EE-/L	8B-\L	8g\L	16e-\LL	16e-\LL
.	.	.	.	.	16d\JJ	16B-\
8EE-/	8EEE-/	8EE-/	8B-\	8g\	[8e-\J	16e-\
.	.	.	.	.	.	16d\JJ
8EE-/	8EEE-/	8EE-/	8B-\	8g\	16e-/LL]	8.e-\L
.	.	.	.	.	16B-/	.
8EE-/J	8EEE-/J	8EE-/J	8B-\J	8g\J	16G/	.
.	.	.	.	.	16E-/JJ	16B-\Jk
8EE-/L	8EEE-/L	8EE-/L	8B-\L	8g\L	16B-/LL	16G/LL
.	.	.	.	.	16A-/JJ	16E-/
8EE-/	8EEE-/	8EE-/	8B-\	8g\	[8B-/J	16B-/
.	.	.	.	.	.	16A-/JJ
8EE-/	8EEE-/	8EE-/	8B-\	8g\	16B-/LL]	8.B-/L
.	.	.	.	.	16G/JJ	.
8EE-/J	8EEE-/J	8EE-/J	8B-\J	8g\J	[8e-/J	.
.	.	.	.	.	.	16G/Jk
=88	=88	=88	=88	=88	=88	=88
8EE-/L	8EEE-/L	8EE-/L	8B-\L	8g\L	16e-\LL]	8.e-\L
.	.	.	.	.	16B-\JJ	.
8EE-/	8EEE-/	8EE-/	8B-\	8g\	[8g\J	.
.	.	.	.	.	.	16B-\Jk
8EE-/	8EEE-/	8EE-/	8B-\	8g\	16g\LL]	8.g\L
.	.	.	.	.	16e-\JJ	.
8EE-/J	8EEE-/J	8EE-/J	8B-\J	8g\J	[8b-\J	.
.	.	.	.	.	.	16e-\Jk
8EE-/L	8EEE-/L	8EE-/L	8B-\L	8g\L	16b-\LL]	8.b-\L
.	.	.	.	.	16g\JJ	.
8EE-/	8EEE-/	8EE-/	8B-\	8g\	[8dd-\J	.
.	.	.	.	.	.	16g\Jk
8EE-/	8EEE-/	8EE-/	8B-\	8g\	16dd-\LL]	8.dd-\L
.	.	.	.	.	16b-\JJ	.
8EE-/J	8EEE-/J	8EE-/J	8B-\J	8g\J	[8g\J	.
.	.	.	.	.	.	16b-\Jk
=89	=89	=89	=89	=89	=89	=89
8AA-/L	8AAA-/L	8AA-/L	8A-\L	8e-\L	16g\LL]	8.cc\L
.	.	.	.	.	16e-\	.
8AA-/	8AAA-/	8AA-/	8A-\	8e-\	(16a-\	.
.	.	.	.	.	16g\JJ)	16b-\Jk
8AA-/	8AAA-/	8AA-/	8c\	8f\	(16cc\LL	(16a-\LL
.	.	.	.	.	16b-\)	16g\)
8AA-/J	8AAA-/J	8AA-/J	8c\J	8f\J	(16a-\	(16f\
.	.	.	.	.	16g\JJ)	16e-\JJ)
8BB-/L	8BBB-/L	8BB-/L	8d\L	8f\L	8f\L	16d\LL
.	.	.	.	.	.	16f\JJ
8BB-/	8BBB-/	8BB-/	8d\	8f\	16d\LL	[8a-\J
.	.	.	.	.	16f\JJ	.
8BB-/	8BBB-/	8BB-/	8d\	8f\	8.a-\L	16a-\LL]
.	.	.	.	.	.	16d\
8BB-/J	8BBB-/J	8BB-/J	8d\J	8f\J	.	16f\
.	.	.	.	.	16d\Jk	16B-\JJ
=90	=90	=90	=90	=90	=90	=90
8BB-/L	8BBB-/L	8BB-/L	8d\L	8f\L	16f/LL	16d/LL
.	.	.	.	.	16B-/	16F/JJ
8BB-/	8BBB-/	8BB-/	8d\	8f\	16d/	[8A-/J
.	.	.	.	.	16F/JJ	.
8BB-/	8BBB-/	8BB-/	8d\	8f\	8.A-/L	16A-/LL]
.	.	.	.	.	.	16D/
8BB-/J	8BBB-/J	8BB-/J	8d\J	8f\J	.	16F/
.	.	.	.	.	16D/Jk	16B-/JJ
8BB-/L	8BBB-/L	8BB-/L	8d\L	8f\L	16F/LL	16d\LL
.	.	.	.	.	16B-/	16f\JJ
8BB-/	8BBB-/	8BB-/	8d\	8f\	16d/	[8a-\J
.	.	.	.	.	16f/JJ	.
8BB-/	8BBB-/	8BB-/	8d\	8f\	16a-\LL	16a-\LL]
.	.	.	.	.	16cc\	16f\
8BB-/J	8BBB-/J	8BB-/J	8d\J	8f\J	16b-\	16dd\
.	.	.	.	.	16a-\JJ	16b-\JJ
=91	=91	=91	=91	=91	=91	=91
8C/L	8CC/L	8C/L	8c\L	8e-\L	16g\LL	16ee-\LL
.	.	.	.	.	16b-\	16g\
8AA-/	8AAA-/	8AA-/	8c\	8e-\	16cc\	16a-\
.	.	.	.	.	16e-\JJ	16b-\JJ
8BB-/	8BBB-/	8BB-/	8B-\	8B-\	8.dt\L	8g\L
8BB-/J	8BBB-/J	8BB-/J	8A-\J	8B-\J	.	16f\LL
.	.	.	.	.	16e-\Jk	16e-\JJ
8E-\L	8EE-\L	16E-\LL	8G/L	8B-\L	8e-\L	4e-\
.	.	16F\	.	.	.	.
8E-\	8EE-\	16G\	(16G/LL	(16B-\LL	(16e-\LL	.
.	.	16A-\JJ	16F/JJ)	16A-\JJ)	16d\JJ)	.
8E-\	8EE-\	16G\LL	8G/L	8B-\L	8e-\	8r
.	.	16F\	.	.	.	.
8E-\J	8EE-\J	16E-\	(16G/LL	8B-\J	8r	8g\
.	.	16D\JJ	16F/JJ)	.	.	.
=92	=92	=92	=92	=92	=92	=92
8C/L	8CC/L	16C\LL	4G/	8c\L	4r	8ee-\L
.	.	16D\	.	.	.	.
8C/	8CC/	16E-\	.	(16c\LL	.	(16ee-\LL
.	.	16F\JJ	.	16B-\JJ)	.	16dd\JJ)
8C/	8CC/	16E-\LL	8r	8c\L	8r	8ee-\L
.	.	16D\	.	.	.	.
8C/J	8CC/J	16C\	8e-\	(16c\LL	8g\	(16ee-\LL
.	.	16BB-\JJ	.	16d\JJ)	.	16dd\JJ)
8AA/L	8AAA/L	16AA/LL	8c\L	(16c\LL	8ee-\L	(16ee-\LL
.	.	16BB-/	.	16A\	.	16cc\
8AA/	8AAA/	16C/	(16c\LL	16F\	(16ee-\LL	16a\
.	.	16D/JJ	16B-\JJ)	16G\JJ)	16dd\JJ)	16b-\JJ)
8AA/	8AAA/	16C/LL	8A\L	16A/LL	8ee-\L	(16cc\LL
.	.	16BB-/	.	16F/JJ	.	16a\
8AA/J	8AAA/J	16AA/	(16c\LL	8C/J	(16ee-\LL	16f\
.	.	16GG/JJ	16B-\JJ)	.	16dd\JJ)	16g\JJ)
=93	=93	=93	=93	=93	=93	=93
8FF/L	8FFF/L	8FF/L	8c\L	8F/L	(16ee-\LL	(16a\LL
.	.	.	.	.	16cc\	16f\
8FF/	8FFF/	8FF/	(16e-\LL	8C/	16a\	16c\
.	.	.	16d\JJ)	.	16b-\JJ)	16d\JJ)
8FF/	8FFF/	8FF/	8e-\L	8F/	(16cc\LL	(16e-\LL
.	.	.	.	.	16a\	16c\
8FF/J	8FFF/J	8FF/J	(16f\LL	8F/J	16f\	16A\
.	.	.	16e-\JJ)	.	16a\JJ)	16c\JJ)
8BB-/L	8BBB-/L	16BB-/LL	8d\L	8F/L	8b-\L	8d\L
.	.	16C/	.	.	.	.
8BB-/	8BBB-/	16D/	(16d\LL	(16F/LL	(16b-\LL	8B-\J
.	.	16E-/JJ	16c\JJ)	16E-/JJ)	16a\JJ)	.
8BB-/	8BBB-/	16D/LL	8d\L	8F/L	8b-\	8r
.	.	16C/	.	.	.	.
8BB-/J	8BBB-/J	16BB-/	(16d\LL	8F/J	8r	8d\
.	.	16AA/JJ	16c\JJ)	.	.	.
=94	=94	=94	=94	=94	=94	=94
8GG/L	8GGG/L	16GG/LL	8B-\L	8G/L	4r	8b-\L
.	.	16AA/	.	.	.	.
8GG/	8GGG/	16BB-/	8d\J	(16G/LL	.	(16b-\LL
.	.	16C/JJ	.	16F/JJ)	.	16a\JJ)
8GG/	8GGG/	16BB-/LL	8r	8G/L	8r	8b-\L
.	.	16AA/	.	.	.	.
8GG/J	8GGG/J	16GG/	8B-\	(16G/LL	8d\	(16b-\LL
.	.	16FF/JJ	.	16A/JJ)	.	16a\JJ)
8EE/L	8EEE/L	16EE/LL	8G/L	(16G/LL	8b-\L	(16b-\LL
.	.	16FF/	.	16E/	.	16g\
8EE/	8EEE/	16GG/	(16G/LL	16C/)	(16b-\LL	16e\
.	.	16AA/JJ	16F/JJ)	16D/JJ	16a\JJ)	16f\JJ)
8EE/	8EEE/	16GG/LL	8E/L	16E/LL	8b-\L	(16g\LL
.	.	16FF/	.	16C/JJ	.	16e\
8EE/J	8EEE/J	16EE/	(16G/LL	8G/J	(16b-\LL	16c\
.	.	16DD/JJ	16F/JJ)	.	16a\JJ)	16d\JJ)
=95	=95	=95	=95	=95	=95	=95
8CC/L	8CCC/L	8CC/L	8G\L	8c\L	(16b-\LL	(16e/LL
.	.	.	.	.	16g\	16c/
8CC/	8CCC/	8CC/	(16B-\LL	8G\	16e\	16G/
.	.	.	16A\JJ)	.	16f\JJ)	16A/JJ)
8CC/	8CCC/	8CC/	8B-\L	8c\	(16g\LL	(16B-/LL
.	.	.	.	.	16e\	16G/
8CC/J	8CCC/J	8CC/J	(16c\LL	8c\J	16c\	16E/
.	.	.	16B-\JJ)	.	16e\JJ)	16G/JJ)
4FF/	4FFF/	4FF/	16A\LL	16c\LL	8f\L	8A/L
.	.	.	16B-\	16B-\	.	.
.	.	.	16A\	16A\	8c\J	8F/J
.	.	.	16G\JJ	16G\JJ	.	.
4r	4r	4r	16F/LL	16F/LL	8r	4r
.	.	.	16E-/	16E-/	.	.
.	.	.	16D/	16D/	8cc\	.
.	.	.	16C/JJ	16C/JJ	.	.
=96	=96	=96	=96	=96	=96	=96
1r	1r	1r	8BB-/	(16BB-/LL	(16dd\LL	4r
.	.	.	.	16AA/JJ)	16cc\	.
.	.	.	8F/	8BB-/J	16b-\)	.
.	.	.	.	.	16cc\JJ	.
.	.	.	(16B-\LL	8r	16dd\LL	8r
.	.	.	16A\JJ)	.	16cc\	.
.	.	.	8B-\J	8G/	16b-\	8dd\
.	.	.	.	.	16a\JJ	.
.	.	.	8r	(16c\LL	(16g\LL	(16ee-\LL
.	.	.	.	16B\JJ)	16f\	16dd\
.	.	.	8G/	8c\J	16e-\)	16cc\)
.	.	.	.	.	16f\JJ	16dd\JJ
.	.	.	(16c\LL	8r	16g\LL	16ee-\LL
.	.	.	16B\JJ)	.	16b-\	16dd\
.	.	.	8c\J	8c\	16a\	16cc\
.	.	.	.	.	16b-\JJ	16b-\JJ
=97	=97	=97	=97	=97	=97	=97
1r	1r	1r	8r	(16f\LL	(16cc\LL	(16a\LL
.	.	.	.	16e\JJ)	16b-\	16g\
.	.	.	8c\	8f\J	16a\)	16f\)
.	.	.	.	.	16b-\JJ	16g\JJ
.	.	.	(16f\LL	8r	16cc\LL	16a\LL
.	.	.	16e\JJ)	.	16b-\	16b-\
.	.	.	8f\J	8F/	16a\	16cc\
.	.	.	.	.	16g\JJ	16a\JJ
.	.	.	8r	(16B-\LL	(16f\LL	(16dd\LL
.	.	.	.	16A\JJ)	16e-\	16cc\
.	.	.	8F/	8B-\J	16d\)	16b-\)
.	.	.	.	.	16e-\JJ	16cc\JJ
.	.	.	(16B-\LL	8r	16f\LL	16dd\LL
.	.	.	16A-\JJ)	.	16a-\	16cc\
.	.	.	8B-\J	8B-\	16g\	16b-\
.	.	.	.	.	16a-\JJ	16a-\JJ
=98	=98	=98	=98	=98	=98	=98
1r	1r	1r	8r	(16e-\LL	(16b-\LL	(16g\LL
.	.	.	.	16d\JJ)	16a-\	16f\
.	.	.	8B-\	8e-\J	16g\)	16e-\)
.	.	.	.	.	16a-\JJ	16f\JJ
.	.	.	(16e-\LL	8r	16b-\LL	16g\LL
.	.	.	16d\JJ)	.	16a-\	16a-\
.	.	.	8e-\J	8e-\	16g\	16b-\
.	.	.	.	.	16f\JJ	16g\JJ
.	.	.	8r	(16A\LL	(16e-\LL	(16cc\LL
.	.	.	.	16G\JJ)	16d\	16b-\
.	.	.	8e-\	8A\J	16c\)	16a\)
.	.	.	.	.	16d\JJ	16b-\JJ
.	.	.	(16A\LL	8r	[4e-\	16cc\LL
.	.	.	16G\JJ)	.	.	16b-\
.	.	.	8A\J	8F/	.	16a\
.	.	.	.	.	.	16g\JJ
=99	=99	=99	=99	=99	=99	=99
1r	1r	1r	8r	(16B-\LL	16e-\LL]	16f\LL
.	.	.	.	16A\JJ)	16c\	16a\
.	.	.	8F/	8B-\J	16B-\	16g\
.	.	.	.	.	16c\JJ	16a\JJ
.	.	.	(16B-\LL	8r	[4d\	16b-\LL
.	.	.	16A\JJ)	.	.	16f\
.	.	.	8B-\J	8B-\	.	16e-\
.	.	.	.	.	.	16f\JJ
.	.	.	8r	(16e-\LL	16d/LL]	[4g\
.	.	.	.	16d\JJ)	16B-/	.
.	.	.	8E-/	8e-\J	16A/	.
.	.	.	.	.	16B-/JJ	.
.	.	.	(16A/LL	8r	[4c/	16g\LL]
.	.	.	16G/JJ)	.	.	16e-\
.	.	.	8A/J	8A\	.	16d\
.	.	.	.	.	.	16e-\JJ
=100	=100	=100	=100	=100	=100	=100
1r	1r	1r	8r	(16d\LL	16c/LL]	[4f\
.	.	.	.	16c\JJ)	16A/	.
.	.	.	8D/	8d\J	16G/	.
.	.	.	.	.	16A/JJ	.
.	.	.	(16G/LL	8r	[4B-/	16f\LL]
.	.	.	16F/JJ)	.	.	16d\
.	.	.	8G/J	8G/	.	16c\
.	.	.	.	.	.	16d\JJ
.	.	.	8r	(16c\LL	16B-/LL]	[4e-\
.	.	.	.	16B-\JJ)	16G/	.
.	.	.	8C/	8c\J	16F/	.
.	.	.	.	.	16G/JJ	.
.	.	.	(16F/LL	8r	16A/LL	16e-\LL]
.	.	.	16E-/JJ)	.	16A/	16c\
.	.	.	8F/J	8F/	16G/	16B-\
.	.	.	.	.	16A/JJ	16c\JJ
=101	=101	=101	=101	=101	=101	=101
1r	1r	1r	8r	8B-\L	8B-\L	16d\LL
.	.	.	.	.	.	16B-\JJ
.	.	.	8B-\L	16B-\LL	16d\LL	[8f\J
.	.	.	.	16F\JJ	16B-\JJ	.
.	.	.	8B-\	16d\LL	8.f\L	16f\LL]
.	.	.	.	16B-\JJ	.	16d\
.	.	.	8B-\J	[8f\J	.	16c\
.	.	.	.	.	16d\Jk	16B-\JJ
.	.	.	8F/L	16f\LL]	8A/L	16c\LL
.	.	.	.	16c\	.	16A\JJ
.	.	.	8F/	16A\	16c/LL	[8f\J
.	.	.	.	16F\JJ	16A/JJ	.
.	.	.	8F/	16c\LL	8.f\L	16f\LL]
.	.	.	.	16A\JJ	.	16e-\
.	.	.	8F/J	[8f\J	.	16d\
.	.	.	.	.	16A\Jk	16c\JJ
=102	=102	=102	=102	=102	=102	=102
1r	1r	4r	8B-\L	16f\LL]	8B-\L	16d\LL
.	.	.	.	16d\	.	16B-\JJ
.	.	.	8B-\	16B-\	16d\LL	[8f\J
.	.	.	.	16F\JJ	16B-\JJ	.
.	.	8r	8B-\	16d\LL	8.f\L	16f\LL]
.	.	.	.	16B-\JJ	.	16d\
.	.	8BB-/	8B-\J	[8f\J	.	16c\
.	.	.	.	.	16d\Jk	16B-\JJ
.	.	8F\L	8c\L	8f\L]	16c/LL	16A/LL
.	.	.	.	.	16B-/	16G/JJ
.	.	(16F\LL	8c\J	16c\LL	16A/	8F/J
.	.	16E\JJ)	.	16B-\JJ	16G/JJ	.
.	.	8F\L	16c\LL	16A/LL	8F/	8r
.	.	.	16B-\	16G/JJ	.	.
.	.	(16F\LL	16A\	8F/J	8r	8f\
.	.	16E-\JJ)	16G\JJ	.	.	.
=103	=103	=103	=103	=103	=103	=103
8BB-/L	8BBB-/L	(16D\LL	8F/	4r	2r	8b-\L
.	.	16F\	.	.	.	.
8BB-/	8BBB-/	16D\	8r	.	.	(16b-\LL
.	.	16E-\JJ)	.	.	.	16a\JJ)
8BB-/	8BBB-/	(16F\LL	4r	8r	.	8b-\L
.	.	16D\	.	.	.	.
8BB-/J	8BBB-/J	16BB-\	.	8F/	.	(16b-\LL
.	.	16C\JJ)	.	.	.	16a\JJ)
8BB-/L	8BBB-/L	8D/L	2r	8B-\L	4r	(16b-\LL
.	.	.	.	.	.	16f\
8BB-/	8BBB-/	16BB-/LL	.	(16B-\LL	.	16d\
.	.	16C/JJ	.	16A\JJ)	.	16e-\JJ)
8BB-/	8BBB-/	8D\L	.	8B-\L	8r	(16f\LL
.	.	.	.	.	.	16d\
8BB-/J	8BBB-/J	16D\LL	.	(16B-\LL	8f\	16B-\
.	.	16E-\JJ	.	16A\JJ)	.	16c\JJ)
=104	=104	=104	=104	=104	=104	=104
8BB-/L	8BBB-/L	8F\L	4r	8B-/L	8b-\L	(16d\LL
.	.	.	.	.	.	16f\
8BB-/	8BBB-/	(16F\LL	.	8F/	(16b-\LL	16d\)
.	.	16E-\JJ)	.	.	16a\JJ)	16c\JJ
8BB-/	8BBB-/	8F\L	8r	8D/	8b-\L	(16d\LL
.	.	.	.	.	.	16f\
8BB-/J	8BBB-/J	(16F\LL	8F/	8F/J	(16b-\LL	16d\)
.	.	16E-\JJ)	.	.	16a\JJ)	16c\JJ
8BB-/L	8BBB-/L	8F\L	8B-\L	8F\L	(16b-\LL	8d\L
.	.	.	.	.	16f\	.
8BB-/	8BBB-/	(16F\LL	(16B-\LL	(16d\LL	16d\	16B-\LL
.	.	16E-\JJ)	16A\JJ)	16c\JJ)	16e-\JJ)	16c\JJ
8BB-/	8BBB-/	8D\L	8B-\L	8B-\L	(16f\LL	8d\L
.	.	.	.	.	16d\	.
8BB-/J	8BBB-/J	(16D\LL	(16B-\LL	(16f\LL	16B-\	16d\LL
.	.	16C\JJ)	16A\JJ)	16e-\JJ)	16c\JJ)	16e-\JJ
=105	=105	=105	=105	=105	=105	=105
8BB-/L	8BBB-/L	8BB-\L	8B-/L	8d\L	(16d\LL	(16f\LL
.	.	.	.	.	16f\	16dd\
8BB-/	8BBB-/	8B-\	8F/	(16f\LL	16d\)	16b-\)
.	.	.	.	16e-\JJ)	16c\JJ	16a\JJ
8BB-/	8BBB-/	8B-\	8D/	8f\L	(16d\LL	(16b-\LL
.	.	.	.	.	16f\	16dd\
8BB-/J	8BBB-/J	8B-\J	8F/J	(16f\LL	16d\)	16b-\)
.	.	.	.	16e-\JJ)	16c\JJ	16a\JJ
16BB-\LL	16BBB-\LL	8B-\L	8F\L	8d\L	8d\L	16b-\LL
16B-\	16BB-\	.	.	.	.	16f\
16A\	16AA\	16A\LL	16d\LL	16f\LL	16B-\LL	16g\
16G\JJ	16GG\JJ	16G\JJ	16e-\JJ	16e-\JJ	16c\JJ	16a\JJ
16F\LL	16FF\LL	16F\LL	8f\L	16d\LL	8d\L	16b-\LL
16E-\	16EE-\	16E-\	.	16c\	.	16a\
16D\	16DD\	16D\	16f\LL	16B-\	16d\LL	16b-\
16C\JJ	16CC\JJ	16C\JJ	16e-\JJ	16A\JJ	16e-\JJ	16cc\JJ
=106	=106	=106	=106	=106	=106	=106
8BB-/L	8BBB-/L	8BB-/L	8d\L	8B-\L	(16f\LL	(16dd\LL
.	.	.	.	.	16dd\	16ff\
8BB-/	8BBB-/	8BB-/	8f\	8B-\	16b-\)	16dd\)
.	.	.	.	.	16a\JJ	16cc\JJ
8BB-/	8BBB-/	8BB-/	8f\	8B-\	(16b-\LL	(16dd\LL
.	.	.	.	.	16dd\	16ff\
8BB-/J	8BBB-/J	8BB-/J	8f\J	8B-\J	16b-\)	16dd\)
.	.	.	.	.	16a\JJ	16cc\JJ
4BB-/	4BBB-/	4BB-/	16f\LL	16B-\LL	8b-\L	8dd\L
.	.	.	16e-\	16c\	.	.
.	.	.	16d\	16d\	8f\J	8b-\J
.	.	.	16c\JJ	16c\JJ	.	.
4r	4r	4r	16B-\LL	16B-\LL	4r	8r
.	.	.	16A-\	16A-\	.	.
.	.	.	16G\	16G\	.	8b-\
.	.	.	16F\JJ	16F\JJ	.	.
=107	=107	=107	=107	=107	=107	=107
1r	1r	1r	4E-/	8E-/	4r	(16gg\LL
.	.	.	.	.	.	16ff\
.	.	.	.	8B-\	.	16ee-\)
.	.	.	.	.	.	16ff\JJ
.	.	.	8r	(16e-\LL	8r	16gg\LL
.	.	.	.	16d\JJ)	.	16ff\
.	.	.	8G/	8e-\J	8b-\	16ee-\
.	.	.	.	.	.	16dd\JJ
.	.	.	(16A/LL	8r	(16ee-\LL	(16cc\LL
.	.	.	16G/JJ)	.	16dd\	16b-\
.	.	.	8A/J	8e-\	16cc\)	16a\)
.	.	.	.	.	16dd\JJ	16b-\JJ
.	.	.	8r	(16c\LL	16ee-\LL	16cc\LL
.	.	.	.	16B-\JJ)	16dd\	16dd\
.	.	.	8A\	8c\J	16cc\	16ee-\
.	.	.	.	.	16b-\JJ	16cc\JJ
=108	=108	=108	=108	=108	=108	=108
1r	1r	1r	(16d\LL	8r	(16a\LL	(16ff\LL
.	.	.	16c#\JJ)	.	16g\	16ee-\
.	.	.	8d\J	8A\	16f\)	16dd\)
.	.	.	.	.	16g\JJ	16ee-\JJ
.	.	.	8r	(16d\LL	16a\LL	16ff\LL
.	.	.	.	16c\JJ)	16cc\	16ee-\
.	.	.	8D/	8d\J	16b-\	16dd\
.	.	.	.	.	16cc\JJ	16cc\JJ
.	.	.	(16G/LL	8r	(16dd\LL	(16b-\LL
.	.	.	16F#/JJ)	.	16cc\	16a\
.	.	.	8G/J	8d\	16b-\)	16g\)
.	.	.	.	.	16cc\JJ	16a\JJ
.	.	.	8r	(16B-\LL	16dd\LL	16b-\LL
.	.	.	.	16A\JJ)	16cc\	16cc\
.	.	.	8G/	8B-\J	16b-\	16dd\
.	.	.	.	.	16a\JJ	16b-\JJ
=109	=109	=109	=109	=109	=109	=109
1r	1r	1r	(16c\LL	8r	16g\LL	[4ee-\
.	.	.	16B-\JJ)	.	16b-\	.
.	.	.	8c\J	8c\	16a\	.
.	.	.	.	.	16b-\JJ	.
.	.	.	8r	(16A\LL	[4cc\	16ee-\LL]
.	.	.	.	16G\JJ)	.	16cc\
.	.	.	8F/	8A\J	.	16b-\
.	.	.	.	.	.	16cc\JJ
.	.	.	(16B-\LL	8r	16cc\LL]	[4dd\
.	.	.	16A\JJ)	.	16a\	.
.	.	.	8B-\J	8B-\	16g\	.
.	.	.	.	.	16a\JJ	.
.	.	.	8r	(16G/LL	[4b-\	16dd\LL]
.	.	.	.	16F/JJ)	.	16b-\
.	.	.	8E-/	8G/J	.	16a\
.	.	.	.	.	.	16b-\JJ
=110	=110	=110	=110	=110	=110	=110
1r	1r	4r	8C/L	16r	16b-\LL]	(16cc\LL
.	.	.	.	16e-\LL	16a\	16ee-\
.	.	.	16D/LL	16f\	16b-\	16dd\)
.	.	.	16E-/JJ	16g\JJ	16cc\JJ	16cc\JJ
.	.	8r	8F/L	8c\L	8.at\L	8.ccT\L
.	.	8F\	8c/J	8f\J	.	.
.	.	.	.	.	16b-\Jk	16b-\Jk
.	.	(16B-\LL	4d\	4f\	4b-\	4b-\
.	.	16c\	.	.	.	.
.	.	16d\)	.	.	.	.
.	.	16c\JJ	.	.	.	.
.	.	16B-\LL	4r	4r	8r	4r
.	.	16A\	.	.	.	.
.	.	16G\	.	.	8d\	.
.	.	16F\JJ	.	.	.	.
=111	=111	=111	=111	=111	=111	=111
1r	1r	16E-\LL	1r	1r	(16g\LL	4r
.	.	16B-\	.	.	16f\	.
.	.	16c\	.	.	16e-\)	.
.	.	16d\JJ	.	.	16f\JJ	.
.	.	16e-\LL	.	.	16g\LL	8r
.	.	16d\	.	.	16f\	.
.	.	16c\	.	.	16e-\	8b-\
.	.	16B-\JJ	.	.	16d\JJ	.
.	.	4c\	.	.	(16c/LL	(16ee-\LL
.	.	.	.	.	16B-/	16dd\
.	.	.	.	.	16A/)	16cc\)
.	.	.	.	.	16B-/JJ	16dd\JJ
.	.	8r	.	.	16c\LL	16ee-\LL
.	.	.	.	.	16d\	16dd\
.	.	8c\	.	.	16e-\	16cc\
.	.	.	.	.	16c\JJ	16b-\JJ
=112	=112	=112	=112	=112	=112	=112
1r	1r	(16d\LL	1r	1r	(16f\LL	(16a\LL
.	.	16e-\	.	.	16e-\	16g\
.	.	16f\)	.	.	16d\)	16f\)
.	.	16e-\JJ	.	.	16e-\JJ	16g\JJ
.	.	16d\LL	.	.	16f\LL	16a\LL
.	.	16c\	.	.	16e-\	16b-\
.	.	16B-\	.	.	16d\	16cc\
.	.	16A\JJ	.	.	16c\JJ	16a\JJ
.	.	4B-\	.	.	(16B-/LL	(16dd\LL
.	.	.	.	.	16A/	16cc\
.	.	.	.	.	16G/)	16b-\)
.	.	.	.	.	16A/JJ	16cc\JJ
.	.	8r	.	.	16B-\LL	16dd\LL
.	.	.	.	.	16c\	16cc\
.	.	8B-\	.	.	16d\	16b-\
.	.	.	.	.	16B-\JJ	16a\JJ
=113	=113	=113	=113	=113	=113	=113
1r	1r	(16c\LL	1r	1r	[4e-\	16g\LL
.	.	16d\	.	.	.	16b-\
.	.	16c\)	.	.	.	16a\
.	.	16B-\JJ	.	.	.	16b-\JJ
.	.	16A\LL	.	.	16e-\LL]	[4cc\
.	.	16F\	.	.	16c\	.
.	.	16G\	.	.	16B-\	.
.	.	16A\JJ	.	.	16c\JJ	.
.	.	16B-\LL	.	.	[4d\	16cc\LL]
.	.	16c\	.	.	.	16a\
.	.	16B-\	.	.	.	16g\
.	.	16A\JJ	.	.	.	16a\JJ
.	.	16G\LL	.	.	16d/LL]	[4b-\
.	.	16A\	.	.	16B-/	.
.	.	16G\	.	.	16A/	.
.	.	16F\JJ	.	.	16B-/JJ	.
=114	=114	=114	=114	=114	=114	=114
2r	2r	16E-\LL	2r	2r	16c\LL	16b-\LL]
.	.	16C\	.	.	16e-\	16a\
.	.	16D\	.	.	16d\	16b-\
.	.	16E-\JJ	.	.	16c\JJ	16cc\JJ
.	.	16F\LL	.	.	8.cT/L	8.at\L
.	.	16D\	.	.	.	.
.	.	16E-\	.	.	.	.
.	.	16F\JJ	.	.	16B-/Jk	16b-\Jk
8BB-/L	8BBB-/L	8BB-/L	8F/L	8d\L	8B-/	16b-\LL
.	.	.	.	.	.	16a\JJ
8BB-/	8BBB-/	8BB-/	8F/	8d\	16b-\LL	[8b-\J
.	.	.	.	.	16a\JJ	.
8BB-/	8BBB-/	8BB-/	8F/	8d\	8.b-\L	16b-\LL]
.	.	.	.	.	.	16f\
8BB-/J	8BBB-/J	8BB-/J	8F/J	8d\J	.	16d\
.	.	.	.	.	16f\Jk	16B-\JJ
=115	=115	=115	=115	=115	=115	=115
8BB-/L	8BBB-/L	8BB-/L	8F/L	8d\L	16d\LL	16f\LL
.	.	.	.	.	16B-\	16e-\JJ
8BB-/	8BBB-/	8BB-/	8F/	8d\	16f\	[8f\J
.	.	.	.	.	16e-\JJ	.
8BB-/	8BBB-/	8BB-/	8F/	8d\	8.f\L	16f\LL]
.	.	.	.	.	.	16d\
8BB-/J	8BBB-/J	8BB-/J	8F/J	8d\J	.	16B-\
.	.	.	.	.	16d\Jk	16F\JJ
8BB-/L	8BBB-/L	8BB-/L	8F/L	8d\L	16B-/LL	16B-/LL
.	.	.	.	.	16F/	16A/JJ
8BB-/	8BBB-/	8BB-/	8F/	8d\	16B-/	[8B-/J
.	.	.	.	.	16A/JJ	.
8BB-/	8BBB-/	8BB-/	8F/	8d\	8.B-/L	16B-/LL]
.	.	.	.	.	.	16F/JJ
8BB-/J	8BBB-/J	8BB-/J	8F/J	8d\J	.	[8d/J
.	.	.	.	.	16F/Jk	.
=116	=116	=116	=116	=116	=116	=116
8BB-/L	8BBB-/L	8BB-/L	8F/L	8d\L	8.d\L	16d\LL]
.	.	.	.	.	.	16B-\JJ
8BB-/	8BBB-/	8BB-/	8F/	8d\	.	[8f\J
.	.	.	.	.	16B-\Jk	.
8BB-/	8BBB-/	8BB-/	8F/	8d\	8.f\L	16f\LL]
.	.	.	.	.	.	16d\JJ
8BB-/J	8BBB-/J	8BB-/J	8F/J	8d\J	.	[8b-\J
.	.	.	.	.	16d\Jk	.
8BB-/L	8BBB-/L	8BB-/L	8F/L	8d\L	8.b-\L	16b-\LL]
.	.	.	.	.	.	16f\
8BB-/	8BBB-/	8BB-/	8F/	8d\	.	16dd\
.	.	.	.	.	16f\Jk	16a\JJ
8BB-/	8BBB-/	8BB-/	8F/	8d\	16dd\LL	16b-\LL
.	.	.	.	.	16a\	16f\
8BB-/J	8BBB-/J	8BB-/J	8F/J	8d\J	16b-\	16d\
.	.	.	.	.	16f\JJ	16A\JJ
=117	=117	=117	=117	=117	=117	=117
8BB-/L	8BBB-/L	8BB-/L	8F/L	8d\L	16d/LL	16B-/LL
.	.	.	.	.	16A/	16F/
8BB-/	8BBB-/	8BB-/	8F/	8d\	16B-/	16D/
.	.	.	.	.	16F/JJ	16F/JJ
8BB-/	8BBB-/	8BB-/	8F/	8d\	16D/LL	(16B-/LL
.	.	.	.	.	16F/	16A/)
8BB-/J	8BBB-/J	8BB-/J	8F/J	8d\J	(16B-/	(16d/
.	.	.	.	.	16A/JJ)	16c/JJ)
8BB-/L	8BBB-/L	8BB-/L	8F/L	8d\L	(16d\LL	(16f\LL
.	.	.	.	.	16c\)	16e-\)
8BB-/	8BBB-/	8BB-/	8F/	8d\	(16f\	(16d\
.	.	.	.	.	16e-\JJ)	16c\JJ)
8BB-/	8BBB-/	8BB-/	8F/	8d\	(16d\LL	(16B-\LL
.	.	.	.	.	16c\	16f\)
8BB-/J	8BBB-/J	8BB-/J	8F/J	8d\J	16B-\)	(16b-\
.	.	.	.	.	16f\JJ	16a\JJ)
=118	=118	=118	=118	=118	=118	=118
8BB-/L	8BBB-/L	8BB-/L	8F/L	8d\L	(16b-\LL	(16dd\LL
.	.	.	.	.	16a\)	16cc\)
8BB-/	8BBB-/	8BB-/	8F/	8d\	(16dd\	(16ff\
.	.	.	.	.	16cc\JJ)	16ee-\JJ)
8BB-/	8BBB-/	8BB-/	8F/	8d\	(16ff\LL	(16dd\LL
.	.	.	.	.	16ee-\)	16cc\)
8BB-/J	8BBB-/J	8BB-/J	8F/J	8d\J	(16dd\	(16b-\
.	.	.	.	.	16cc\JJ)	16a-\JJ)
8E-\L	8EE-\L	8E-\L	8G/L	8e-\L	(16b-\LL	(16g\LL
.	.	.	.	.	16a-\	16b-\)
8E-\	8EE-\	8E-\	8G/	8e-\	16g\)	(16ee-\
.	.	.	.	.	16b-\JJ	16dd\JJ)
8E-\	8EE-\	8E-\	8G/	8e-\	(16ee-\LL	(16cc\LL
.	.	.	.	.	16dd\)	16b-\)
8E-\J	8EE-\J	8E-\J	8G/J	8e-\J	(16cc\	(16a\
.	.	.	.	.	16b-\JJ)	16g\JJ)
=119	=119	=119	=119	=119	=119	=119
8E-\L	8EE-\L	8E-\L	8A\L	8c\L	(16a\LL	16f\LL
.	.	.	.	.	16g\)	16e\JJ
8E-\	8EE-\	8E-\	8A\	8c\	(16f\	[8f\J
.	.	.	.	.	16e\JJ)	.
8E-\	8EE-\	8E-\	8A\	8c\	8.f\L	16f/LL]
.	.	.	.	.	.	16c/
8E-\J	8EE-\J	8E-\J	8A\J	8c\J	.	16A/
.	.	.	.	.	16c\Jk	16F/JJ
8E-\L	8EE-\L	8E-\L	8A\L	8c\L	16A/LL	16c/LL
.	.	.	.	.	16F/	16B-/JJ
8E-\	8EE-\	8E-\	8A\	8c\	16c/	[8c/J
.	.	.	.	.	16B-/JJ	.
8E-\	8EE-\	8E-\	8A\	8c\	8.c/L	16c/LL]
.	.	.	.	.	.	16A/
8E-\J	8EE-\J	8E-\J	8A\J	8c\J	.	16F/
.	.	.	.	.	16A/Jk	16C/JJ
=120	=120	=120	=120	=120	=120	=120
8E-\L	8EE-\L	8E-\L	8A\L	8c\L	16F/LL	16F/LL
.	.	.	.	.	16C/	16E/JJ
8E-\	8EE-\	8E-\	8A\	8c\	16F/	[8F/J
.	.	.	.	.	16E/JJ	.
8E-\	8EE-\	8E-\	8A\	8c\	8.F/L	16F/LL]
.	.	.	.	.	.	16C/JJ
8E-\J	8EE-\J	8E-\J	8A\J	8c\J	.	[8A/J
.	.	.	.	.	16C/Jk	.
8E-\L	8EE-\L	8E-\L	8A\L	8c\L	8.A/L	16A/LL]
.	.	.	.	.	.	16F/JJ
8E-\	8EE-\	8E-\	8A\	8c\	.	[8c/J
.	.	.	.	.	16F/Jk	.
8E-\	8EE-\	8E-\	8A\	8c\	8.c/L	16c\LL]
.	.	.	.	.	.	16A\JJ
8E-\J	8EE-\J	8E-\J	8A\J	8c\J	.	[8f\J
.	.	.	.	.	16A/Jk	.
=121	=121	=121	=121	=121	=121	=121
8E-\L	8EE-\L	8E-\L	8A\L	8c\L	8.f\L	16f\LL]
.	.	.	.	.	.	16c\
8E-\	8EE-\	8E-\	8A\	8c\	.	16a\
.	.	.	.	.	16c\Jk	16f\JJ
8E-\	8EE-\	8E-\	8A\	8c\	16a\LL	16cc\LL
.	.	.	.	.	16f\	16a\
8E-\J	8EE-\J	8E-\J	8A\J	8c\J	16cc\	16f\
.	.	.	.	.	16a\JJ	16c\JJ
8E-\L	8EE-\L	8E-\L	8A\L	8c\L	16f\LL	16a\LL
.	.	.	.	.	16c\	16f\
8E-\	8EE-\	8E-\	8A\	8c\	16a\	16c\
.	.	.	.	.	16f\JJ	16A\JJ
8E-\	8EE-\	8E-\	8A\	8c\	16c\LL	16f\LL
.	.	.	.	.	16A\JJ	16c\
8E-\J	8EE-\J	8E-\J	8A\J	8c\J	[8f\J	16A\
.	.	.	.	.	.	16F\JJ
=122	=122	=122	=122	=122	=122	=122
8D\L	8DD\L	8D\L	8B-\L	8d\L	16f\LL]	16B-/LL
.	.	.	.	.	16c\	16A/JJ
8D\	8DD\	8D\	8B-\	8d\	16d\	[8B-/J
.	.	.	.	.	16A\JJ	.
8D\	8DD\	8D\	8B-\	8d\	8.B-/L	16B-/LL]
.	.	.	.	.	.	16F/JJ
8D\J	8DD\J	8D\J	8B-\J	8d\J	.	[8d/J
.	.	.	.	.	16F/Jk	.
8D\L	8DD\L	8D\L	8B-\L	8f\L	8.d\L	16d\LL]
.	.	.	.	.	.	16B-\JJ
8D\	8DD\	8D\	8B-\	8f\	.	[8f\J
.	.	.	.	.	16B-\Jk	.
8D\	8DD\	8D\	8B-\	8f\	8.f\L	16f\LL]
.	.	.	.	.	.	16d\JJ
8D\J	8DD\J	8D\J	8B-\J	8f\J	.	[8b-\J
.	.	.	.	.	16d\Jk	.
=123	=123	=123	=123	=123	=123	=123
8G\L	8GG\L	8G\L	8B-\L	8f\L	8.b-\L	16b-\LL]
.	.	.	.	.	.	16a-\
8G\	8GG\	8G\	8B-\	8d\	.	16g\
.	.	.	.	.	16a-\Jk	16f\JJ
8G\	8GG\	8G\	8B-\	8e-\	16g\LL	16e-\LL
.	.	.	.	.	16f\	16dd\
8G\J	8GG\J	8G\J	8B-\J	8e-\J	16e-\	16cc\
.	.	.	.	.	16d\JJ	16b-\JJ
8F\L	8FF\L	8F\L	8c\L	8f\L	16e-\LL	16a\LL
.	.	.	.	.	16f\	16cc\JJ
8F\	8FF\	8F\	8c\	8f\	16a\	[8ee-\J
.	.	.	.	.	16cc\JJ	.
8F\	8FF\	8F\	8c\	8f\	8.ee-\L	16ee-\LL]
.	.	.	.	.	.	16a\
8F\J	8FF\J	8F\J	8c\J	8f\J	.	16cc\
.	.	.	.	.	16a\Jk	16f\JJ
=124	=124	=124	=124	=124	=124	=124
8F\L	8FF\L	8F\L	8c\L	8f\L	16cc\LL	16a\LL
.	.	.	.	.	16f\	16c\JJ
8F\	8FF\	8F\	8c\	8f\	16a\	[8e-\J
.	.	.	.	.	16c\JJ	.
8F\	8FF\	8F\	8c\	8f\	8.e-\L	16e-/LL]
.	.	.	.	.	.	16A/
8F\J	8FF\J	8F\J	8c\J	8f\J	.	16c/
.	.	.	.	.	16A\Jk	16F/JJ
8F\L	8FF\L	8F\L	8c\L	8f\L	16c/LL	16A/LL
.	.	.	.	.	16F/	16C/JJ
8F\	8FF\	8F\	8c\	8f\	16A/	[8E-/J
.	.	.	.	.	16C/JJ	.
8F\	8FF\	8F\	8c\	8f\	8.E-/L	16E-/LL]
.	.	.	.	.	.	16F/
8F\J	8FF\J	8F\J	8c\J	8f\J	.	16A/
.	.	.	.	.	16F/Jk	16F/JJ
=125	=125	=125	=125	=125	=125	=125
8F\L	8FF\L	8F\L	8c\L	8f\L	16A/LL	16c\LL
.	.	.	.	.	16F/	16A\
8F\	8FF\	8F\	8c\	8f\	16c/	16f\
.	.	.	.	.	16A/JJ	16c\JJ
8F\	8FF\	8F\	8c\	8c\	16f\LL	16a\LL
.	.	.	.	.	16c\	16f\
8F\J	8FF\J	8F\J	8c\J	8c\J	16a\	16cc\
.	.	.	.	.	16f\JJ	16e-\JJ
8F\L	8FF\L	8F\L	8B-\L	8d\L	16b-\LL	16d\LL
.	.	.	.	.	16f\	16f\JJ
8F\	8FF\	8F\	8B-\	8d\	16d\	[8b-\J
.	.	.	.	.	16f\JJ	.
8F\	8FF\	8F\	8B-\	8d\	8.b-\L	16b-\LL]
.	.	.	.	.	.	16dd\
8F\J	8FF\J	8F\J	8B-\J	8d\J	.	16ff\
.	.	.	.	.	16dd\Jk	16b-\JJ
=126	=126	=126	=126	=126	=126	=126
8F\L	8FF\L	8F\L	8B-\L	8d\L	16ff\LL	16dd\LL
.	.	.	.	.	16b-\	16f\JJ
8F\	8FF\	8F\	8B-\	8d\	16dd\	[8b-\J
.	.	.	.	.	16f\JJ	.
8F\	8FF\	8F\	8B-\	8d\	8.b-\L	16b-\LL]
.	.	.	.	.	.	16d\
8F\J	8FF\J	8F\J	8B-\J	8d\J	.	16f\
.	.	.	.	.	16d\Jk	16B-\JJ
8F\L	8FF\L	8F\L	8B-\L	8d\L	16f/LL	16d/LL
.	.	.	.	.	16B-/	16F/JJ
8F\	8FF\	8F\	8B-\	8d\	16d/	[8B-/J
.	.	.	.	.	16F/JJ	.
8F\	8FF\	8F\	8B-\	8d\	8.B-/L	16B-/LL]
.	.	.	.	.	.	16F/
8F\J	8FF\J	8F\J	8B-\J	8d\J	.	16D/
.	.	.	.	.	16F/Jk	16F/JJ
=127	=127	=127	=127	=127	=127	=127
8F\L	8FF\L	8F\L	8B-\L	8d\L	16D/LL	16B-/LL
.	.	.	.	.	16F/	16F/
8F\	8FF\	8F\	8B-\	8d\	16B-/	16d/
.	.	.	.	.	16F/JJ	16B-/JJ
8F\	8FF\	8F\	8B-\	8d\	16d\LL	16f\LL
.	.	.	.	.	16B-\	16d\
8F\J	8FF\J	8F\J	8B-\J	8d\J	16f\	16b-\
.	.	.	.	.	16d\JJ	16g\JJ
8F\L	8FF\L	8F\L	8G/L	8e\L	16b-\LL	16e\LL
.	.	.	.	.	16g\	16g\JJ
8F\	8FF\	8F\	8G/	8e\	16e\	[8b-\J
.	.	.	.	.	16g\JJ	.
8F\	8FF\	8F\	8G/	8e\	8.b-\L	16b-\LL]
.	.	.	.	.	.	16e\
8F\J	8FF\J	8F\J	8G/J	8e\J	.	16g\
.	.	.	.	.	16e\Jk	16B-\JJ
=128	=128	=128	=128	=128	=128	=128
8F\L	8FF\L	8F\L	8G/L	8e\L	16g\LL	16e/LL
.	.	.	.	.	16c\	16G/JJ
8F\	8FF\	8F\	8G/	8e\	16e\	[8B-/J
.	.	.	.	.	16G\JJ	.
8F\	8FF\	8F\	8G/	8e\	8.B-/L	16B-/LL]
.	.	.	.	.	.	16E/
8F\J	8FF\J	8F\J	8G/J	8e\J	.	16G/
.	.	.	.	.	16E/Jk	16C/JJ
8F\L	8FF\L	8F\L	8G/L	8e\L	16G/LL	16E/LL
.	.	.	.	.	16C/	16G/JJ
8F\	8FF\	8F\	8G/	8e\	16E/	[8B-/J
.	.	.	.	.	16G/JJ	.
8F\	8FF\	8F\	8G/	8e\	8.B-/L	16B-/LL]
.	.	.	.	.	.	16G/JJ
8F\J	8FF\J	8F\J	8G/J	8e\J	.	[8e/J
.	.	.	.	.	16G/Jk	.
=129	=129	=129	=129	=129	=129	=129
8F\L	8FF\L	8F\L	8G/L	8e\L	8.e\L	16e\LL]
.	.	.	.	.	.	16c\JJ
8F\	8FF\	8F\	8G/	8e\	.	[8g\J
.	.	.	.	.	16c\Jk	.
8F\	8FF\	8F\	8G/	8e\	8.g\L	16g\LL]
.	.	.	.	.	.	16e\JJ
8F\J	8FF\J	8F\J	8G/J	8g\J	.	[8b-\J
.	.	.	.	.	16e\Jk	.
8F\L	8FF\L	8F\L	8F/L	8c\L	8.f\L	16b-\LL]
.	.	.	.	.	.	16g\
8F\	8FF\	8F\	8F/	8c\	.	16a\
.	.	.	.	.	16cc\Jk	16f\JJ
8E-\	8EE-\	8E-\	8A/	8c\	16a\LL	16cc\LL
.	.	.	.	.	16f\	16a\
8E-\J	8EE-\J	8E-\J	8A/J	8c\J	16c\	16ee-\
.	.	.	.	.	16A\JJ	16cc\JJ
=130	=130	=130	=130	=130	=130	=130
8.D\L	8.DD\L	8.D\L	8.B-\L	8.d\L	8.F\L	16ff\LL
.	.	.	.	.	.	16a\
.	.	.	.	.	.	16b-\
16E-\Jk	16EE-\Jk	16E-\Jk	16B-\Jk	16c\Jk	16g\Jk	16e-\JJ
8F/L	8FF/L	8F/L	8B-\L	8d\L	16f\LL	16d\LL
.	.	.	.	.	16d\	16b-\
8FF/J	8FFF/J	8FF/J	8F\J	8f\J	16e-\	16c\
.	.	.	.	.	16c\JJ	16a\JJ
4BB-;/	4BBB-;/	4BB-;/	4F;/	4f;\	4d;\	4b-;\
4r	4r	4r	4r	4r	4r	4r
==	==	==	==	==	==	==
*-	*-	*-	*-	*-	*-	*-
!!!CDT: 1685/3//-1750/7/28
!!!OCY: Deutschland
!!!ODE: His Royal Highness Christian Ludwig, Margrave of Brandenburg.
!!!ODT: 1708//-1710//
!!!OPC: ?Weimar
!!!PPR: Peters
!!!PDT: 1850
!!!PPP: Leipzig
!!!AGN: concerto grosso
!!!AST: baroque, orchestral
!!!AMT: simple duple
!!!SCA: Bach-Werke-Verzeichnis
!!!YOR: Bach Gesellschaft, xix,167
!!!YOY: 1871; although imprint says 1869
!!!AIN: cemba; cbass; cello; violt; viola
!!!EEV: 1.0
!!!RDT: 1994 April 12
!!!YER: 1994 October 23
!!!YEN: United States of America
!!!EFL: 1/3
!!!EED: W.B. Hewlett
!!!VTS: 2017243832
